; generated by Slic3r 1.2.9 on 2017-05-12 at 21:28:08

; external perimeters extrusion width = 0.35mm
; perimeters extrusion width = 0.52mm
; infill extrusion width = 0.52mm
; solid infill extrusion width = 0.52mm
; top infill extrusion width = 0.35mm

M107
M190 S100 ; set bed temperature
M104 S210 ; set temperature
G28 ; home all axes
G1 Z5 F5000 ; lift nozzle
M109 S210 ; wait for temperature to be reached
G21 ; set units to millimeters
G90 ; use absolute coordinates
M82 ; use absolute distances for extrusion
G92 E0
G1 Z0.200 F7800.000
G1 E-1.00000 F3600.00000
G92 E0
G1 X71.406 Y80.718 F7800.000
G1 E1.00000 F3600.00000
G1 X72.033 Y80.209 E1.02395 F1500.000
G1 X72.801 Y79.683 E1.05162
G1 X73.575 Y79.245 E1.07802
G1 X74.422 Y78.857 E1.10568
G1 X75.300 Y78.545 E1.13334
G1 X76.201 Y78.310 E1.16099
G1 X76.977 Y78.173 E1.18439
G1 X77.905 Y78.085 E1.21205
G1 X78.442 Y78.072 E1.22801
G1 X122.207 Y78.072 E2.52746
G1 X122.910 Y78.096 E2.54833 F1500.000
G1 X123.647 Y78.172 E2.57032
G1 X124.244 Y78.272 E2.58831
G1 X124.929 Y78.430 E2.60918
G1 X125.506 Y78.601 E2.62705
G1 X126.206 Y78.857 E2.64917
G1 X126.848 Y79.143 E2.67005
G1 X127.381 Y79.421 E2.68790
G1 X127.984 Y79.783 E2.70878
G1 X128.480 Y80.124 E2.72665
G1 X129.034 Y80.557 E2.74753
G1 X129.589 Y81.054 E2.76964
G1 X130.010 Y81.482 E2.78747
G1 X130.471 Y82.014 E2.80836
G1 X130.837 Y82.490 E2.82621
G1 X131.252 Y83.108 E2.84831
G1 X131.691 Y83.884 E2.87476
G1 X132.040 Y84.638 E2.89943
G1 X132.236 Y85.593 E2.92839
G1 X132.236 Y91.907 E3.11586
G1 X132.040 Y92.862 E3.14482
G1 X131.793 Y93.412 E3.16272
G1 X131.423 Y94.107 E3.18609
G1 X130.945 Y94.857 E3.21250
G1 X130.498 Y95.453 E3.23463
G1 X129.981 Y96.048 E3.25801
G1 X107.990 Y118.674 E4.19484
G1 X107.581 Y119.074 E4.21183
G1 X106.872 Y119.677 E4.23946
G1 X106.112 Y120.217 E4.26715
G1 X105.308 Y120.688 E4.29481
G1 X104.467 Y121.088 E4.32247
G1 X103.594 Y121.412 E4.35013
G1 X102.696 Y121.659 E4.37778
G1 X101.821 Y121.821 E4.40419
G1 X100.894 Y121.912 E4.43184
G1 X99.920 Y121.921 E4.46076
G1 X99.405 Y121.889 E4.47610
G1 X98.849 Y121.827 E4.49270
G1 X97.891 Y121.650 E4.52162
G1 X97.391 Y121.520 E4.53697
G1 X96.858 Y121.353 E4.55356
G1 X95.951 Y120.996 E4.58247
G1 X95.485 Y120.774 E4.59783
G1 X94.993 Y120.508 E4.61442
G1 X94.172 Y119.985 E4.64333
G1 X93.756 Y119.678 E4.65868
G1 X93.325 Y119.323 E4.67527
G1 X92.638 Y118.674 E4.70332
G1 X70.766 Y96.174 E5.63500
G1 X70.248 Y95.598 E5.65799
G1 X69.791 Y95.009 E5.68013
G1 X69.278 Y94.231 E5.70779
G1 X69.024 Y93.782 E5.72312
G1 X68.773 Y93.282 E5.73972
G1 X68.415 Y92.422 E5.76738
G1 X68.122 Y91.493 E5.79631
G1 X67.993 Y90.949 E5.81290
G1 X67.899 Y90.441 E5.82824
G1 X67.791 Y89.516 E5.85590
G1 X67.765 Y88.585 E5.88357
G1 X67.825 Y87.613 E5.91248
G1 X67.892 Y87.100 E5.92782
G1 X67.993 Y86.551 E5.94441
G1 X68.224 Y85.648 E5.97207
G1 X68.533 Y84.770 E5.99973
G1 X68.937 Y83.884 E6.02864
G1 X69.184 Y83.429 E6.04399
G1 X69.475 Y82.952 E6.06059
G1 X70.014 Y82.192 E6.08825
G1 X70.647 Y81.452 E6.11716
G1 X71.367 Y80.752 E6.14697
G1 X71.643 Y80.985 F7800.000
G1 X72.245 Y80.496 E6.17000 F1500.000
G1 X72.988 Y79.988 E6.19673
G1 X73.740 Y79.562 E6.22240
G1 X74.559 Y79.187 E6.24913
G1 X75.407 Y78.885 E6.27586
G1 X76.274 Y78.659 E6.30246
G1 X77.024 Y78.527 E6.32507
G1 X77.920 Y78.442 E6.35180
G1 X78.442 Y78.429 E6.36730
G1 X122.204 Y78.429 E7.66666
G1 X122.888 Y78.453 E7.68698 F1500.000
G1 X123.600 Y78.526 E7.70822
G1 X124.173 Y78.622 E7.72547
G1 X124.840 Y78.776 E7.74579
G1 X125.393 Y78.940 E7.76291
G1 X126.036 Y79.174 E7.78323
G1 X126.566 Y79.404 E7.80040
G1 X127.206 Y79.732 E7.82173
G1 X127.792 Y80.084 E7.84206
G1 X128.268 Y80.411 E7.85919
G1 X128.807 Y80.832 E7.87951
G1 X129.343 Y81.313 E7.90088
G1 X129.746 Y81.724 E7.91797
G1 X130.196 Y82.241 E7.93831
G1 X130.548 Y82.699 E7.95548
G1 X130.948 Y83.295 E7.97678
G1 X131.374 Y84.048 E8.00248
G1 X131.712 Y84.778 E8.02636
G1 X131.879 Y85.593 E8.05106
G1 X131.879 Y91.907 E8.23853
G1 X131.712 Y92.722 E8.26323
G1 X131.455 Y93.290 E8.28175
G1 X131.115 Y93.926 E8.30315
G1 X130.651 Y94.655 E8.32882
G1 X130.218 Y95.231 E8.35020
G1 X129.722 Y95.802 E8.37266
G1 X107.734 Y118.425 E9.30936
G1 X107.340 Y118.811 E9.32574
G1 X106.655 Y119.394 E9.35245
G1 X105.920 Y119.916 E9.37921
G1 X105.143 Y120.372 E9.40595
G1 X104.330 Y120.758 E9.43268
G1 X103.486 Y121.072 E9.45941
G1 X102.618 Y121.311 E9.48614
G1 X101.732 Y121.473 E9.51289
G1 X100.836 Y121.558 E9.53962
G1 X100.332 Y121.571 E9.55459
G1 X99.792 Y121.558 E9.57062
G1 X98.860 Y121.468 E9.59844
G1 X98.327 Y121.378 E9.61447
G1 X97.835 Y121.269 E9.62945
G1 X96.937 Y121.003 E9.65725
G1 X96.464 Y120.826 E9.67224
G1 X95.969 Y120.612 E9.68827
G1 X95.138 Y120.179 E9.71608
G1 X94.708 Y119.916 E9.73105
G1 X94.262 Y119.611 E9.74709
G1 X93.529 Y119.028 E9.77490
G1 X92.894 Y118.425 E9.80089
G1 X71.022 Y95.925 E10.73257
G1 X70.524 Y95.371 E10.75470
G1 X70.081 Y94.802 E10.77609
G1 X69.576 Y94.034 E10.80340
G1 X69.320 Y93.579 E10.81887
G1 X69.096 Y93.128 E10.83384
G1 X68.749 Y92.297 E10.86057
G1 X68.468 Y91.404 E10.88839
G1 X68.343 Y90.878 E10.90443
G1 X68.251 Y90.382 E10.91939
G1 X68.147 Y89.488 E10.94613
G1 X68.122 Y88.588 E10.97287
G1 X68.179 Y87.653 E11.00067
G1 X68.245 Y87.153 E11.01564
G1 X68.343 Y86.622 E11.03168
G1 X68.567 Y85.750 E11.05842
G1 X68.866 Y84.900 E11.08515
G1 X69.254 Y84.048 E11.11295
G1 X69.495 Y83.605 E11.12793
G1 X69.776 Y83.144 E11.14397
G1 X70.298 Y82.410 E11.17071
G1 X70.906 Y81.698 E11.19851
G1 X71.603 Y81.020 E11.22739
G1 X71.879 Y81.253 F7800.000
G1 X72.457 Y80.783 E11.24950 F1500.000
G1 X73.175 Y80.292 E11.27531
G1 X73.905 Y79.879 E11.30024
G1 X74.696 Y79.517 E11.32604
G1 X75.514 Y79.226 E11.35185
G1 X76.356 Y79.007 E11.37765
G1 X77.070 Y78.881 E11.39920
G1 X77.936 Y78.799 E11.42501
G1 X78.442 Y78.786 E11.44005
G1 X122.201 Y78.786 E12.73932
G1 X122.866 Y78.809 E12.75908 F1500.000
G1 X123.553 Y78.880 E12.77959
G1 X124.102 Y78.972 E12.79610
G1 X124.750 Y79.122 E12.81586
G1 X125.279 Y79.278 E12.83224
G1 X125.932 Y79.517 E12.85289
G1 X126.541 Y79.788 E12.87265
G1 X127.030 Y80.042 E12.88902
G1 X127.600 Y80.385 E12.90880
G1 X128.056 Y80.698 E12.92519
G1 X128.580 Y81.108 E12.94494
G1 X129.097 Y81.572 E12.96558
G1 X129.577 Y82.068 E12.98608
G1 X129.939 Y82.491 E13.00261
G1 X130.340 Y83.023 E13.02237
G1 X130.717 Y83.601 E13.04287
G1 X131.071 Y84.240 E13.06455
G1 X131.384 Y84.919 E13.08675
G1 X131.522 Y85.593 E13.10719
G1 X131.522 Y91.907 E13.29466
G1 X131.384 Y92.581 E13.31510
G1 X131.071 Y93.260 E13.33729
G1 X130.735 Y93.869 E13.35794
G1 X130.357 Y94.453 E13.37859
G1 X129.939 Y95.009 E13.39924
G1 X129.463 Y95.556 E13.42077
G1 X107.478 Y118.176 E14.35734
G1 X107.099 Y118.547 E14.37311
G1 X106.437 Y119.111 E14.39890
G1 X105.728 Y119.615 E14.42473
G1 X104.979 Y120.055 E14.45054
G1 X104.193 Y120.428 E14.47635
G1 X103.379 Y120.731 E14.50215
G1 X102.541 Y120.962 E14.52796
G1 X101.686 Y121.119 E14.55378
G1 X100.820 Y121.201 E14.57959
G1 X100.329 Y121.214 E14.59419
G1 X99.808 Y121.201 E14.60967
G1 X98.912 Y121.115 E14.63637
G1 X98.398 Y121.028 E14.65185
G1 X97.918 Y120.922 E14.66646
G1 X97.056 Y120.666 E14.69315
G1 X96.595 Y120.494 E14.70777
G1 X96.117 Y120.287 E14.72324
G1 X95.319 Y119.872 E14.74994
G1 X94.900 Y119.615 E14.76454
G1 X94.469 Y119.320 E14.78003
G1 X93.766 Y118.760 E14.80673
G1 X93.150 Y118.176 E14.83193
G1 X71.278 Y95.676 E15.76361
G1 X70.800 Y95.143 E15.78486
G1 X70.372 Y94.595 E15.80552
G1 X69.893 Y93.869 E15.83133
G1 X69.651 Y93.441 E15.84592
G1 X69.418 Y92.975 E15.86141
G1 X69.084 Y92.172 E15.88722
G1 X68.814 Y91.314 E15.91393
G1 X68.693 Y90.807 E15.92941
G1 X68.603 Y90.324 E15.94401
G1 X68.503 Y89.460 E15.96982
G1 X68.479 Y88.591 E15.99563
G1 X68.534 Y87.694 E16.02233
G1 X68.598 Y87.206 E16.03693
G1 X68.693 Y86.693 E16.05241
G1 X68.909 Y85.851 E16.07822
G1 X69.209 Y85.004 E16.10492
G1 X69.571 Y84.213 E16.13073
G1 X69.805 Y83.781 E16.14533
G1 X70.077 Y83.336 E16.16082
G1 X70.581 Y82.627 E16.18663
G1 X71.165 Y81.944 E16.21333
G1 X71.840 Y81.287 E16.24128
G1 X72.116 Y81.520 F7800.000
G1 X72.670 Y81.070 E16.26246 F1500.000
G1 X73.361 Y80.597 E16.28735
G1 X74.070 Y80.195 E16.31153
G1 X74.832 Y79.847 E16.33641
G1 X75.622 Y79.566 E16.36130
G1 X76.433 Y79.355 E16.38618
G1 X77.117 Y79.235 E16.40680
G1 X77.951 Y79.156 E16.43168
G1 X122.198 Y79.143 E17.74543
G1 X122.844 Y79.166 E17.76463 F1500.000
G1 X123.507 Y79.234 E17.78441
G1 X124.031 Y79.322 E17.80017
G1 X124.661 Y79.467 E17.81938
G1 X125.166 Y79.617 E17.83502
G1 X125.796 Y79.847 E17.85493
G1 X126.387 Y80.110 E17.87414
G1 X126.975 Y80.422 E17.89390
G1 X127.428 Y80.699 E17.90969
G1 X127.958 Y81.071 E17.92890
G1 X128.476 Y81.489 E17.94866
G1 X128.868 Y81.848 E17.96444
G1 X129.318 Y82.313 E17.98365
G1 X129.660 Y82.713 E17.99928
G1 X130.049 Y83.230 E18.01849
G1 X130.415 Y83.792 E18.03840
G1 X130.751 Y84.399 E18.05901
G1 X131.055 Y85.059 E18.08059
G1 X131.165 Y85.593 E18.09677
G1 X131.165 Y91.907 E18.28424
G1 X131.055 Y92.441 E18.30042
G1 X130.741 Y93.122 E18.32270
G1 X130.415 Y93.708 E18.34261
G1 X130.049 Y94.270 E18.36252
G1 X129.645 Y94.805 E18.38243
G1 X129.106 Y95.414 E18.40657
G1 X106.857 Y118.284 E19.35393
G1 X106.220 Y118.827 E19.37879
G1 X105.536 Y119.314 E19.40370
G1 X104.814 Y119.738 E19.42858
G1 X104.057 Y120.098 E19.45346
G1 X103.272 Y120.390 E19.47835
G1 X102.464 Y120.613 E19.50323
G1 X101.639 Y120.765 E19.52812
G1 X100.805 Y120.844 E19.55300
G1 X100.326 Y120.857 E19.56724
G1 X99.823 Y120.844 E19.58216
G1 X98.965 Y120.762 E19.60775
G1 X98.469 Y120.678 E19.62268
G1 X98.001 Y120.575 E19.63692
G1 X97.175 Y120.330 E19.66250
G1 X96.726 Y120.162 E19.67674
G1 X96.265 Y119.962 E19.69167
G1 X95.500 Y119.564 E19.71725
G1 X95.092 Y119.314 E19.73148
G1 X94.677 Y119.029 E19.74642
G1 X94.002 Y118.493 E19.77201
G1 X93.406 Y117.927 E19.79641
G1 X71.534 Y95.427 E20.72809
G1 X71.090 Y94.934 E20.74778
G1 X70.677 Y94.406 E20.76769
G1 X70.213 Y93.708 E20.79257
G1 X69.802 Y92.951 E20.81816
G1 X69.469 Y92.182 E20.84304
G1 X69.302 Y91.708 E20.85797
G1 X69.165 Y91.248 E20.87220
G1 X68.983 Y90.430 E20.89710
G1 X68.871 Y89.575 E20.92268
G1 X68.840 Y89.074 E20.93761
G1 X68.836 Y88.594 E20.95185
G1 X68.889 Y87.734 E20.97743
G1 X68.951 Y87.259 E20.99166
G1 X69.042 Y86.764 E21.00659
G1 X69.251 Y85.953 E21.03148
G1 X69.530 Y85.162 E21.05636
G1 X69.887 Y84.378 E21.08195
G1 X70.116 Y83.957 E21.09618
G1 X70.378 Y83.528 E21.11111
G1 X70.864 Y82.845 E21.13600
G1 X71.424 Y82.189 E21.16159
G1 X72.077 Y81.555 E21.18861
G1 E20.18861 F3600.00000
G92 E0
G1 X106.685 Y92.378 F7800.000
G1 E1.00000 F3600.00000
G1 X106.249 Y93.061 E1.02405 F1500.000
G1 X105.933 Y93.465 E1.03928
G1 X105.593 Y93.843 E1.05436
G1 X105.124 Y94.288 E1.07355
G1 X104.728 Y94.608 E1.08868
G1 X104.309 Y94.902 E1.10388
G1 X103.870 Y95.166 E1.11908
G1 X103.418 Y95.396 E1.13416
G1 X102.819 Y95.644 E1.15340
G1 X102.336 Y95.801 E1.16848
G1 X101.839 Y95.925 E1.18368
G1 X101.339 Y96.013 E1.19877
G1 X100.694 Y96.075 E1.21800
G1 X100.190 Y96.084 E1.23297
G1 X99.551 Y96.045 E1.25197
G1 X98.785 Y95.924 E1.27500
G1 X98.173 Y95.765 E1.29376
G1 X97.448 Y95.502 E1.31667
G1 X96.758 Y95.165 E1.33947
G1 X96.107 Y94.758 E1.36226
G1 X95.602 Y94.371 E1.38115
G1 X95.035 Y93.842 E1.40418
G1 X94.616 Y93.369 E1.42294
G1 X94.160 Y92.741 E1.44597
G1 X93.840 Y92.197 E1.46473
G1 X93.512 Y91.494 E1.48776
G1 X93.301 Y90.898 E1.50653
G1 X93.114 Y90.150 E1.52944
G1 X93.007 Y89.389 E1.55223
G1 X92.980 Y88.618 E1.57515
G1 X93.019 Y87.987 E1.59391
G1 X93.140 Y87.221 E1.61694
G1 X93.299 Y86.609 E1.63570
G1 X93.562 Y85.884 E1.65862
G1 X93.899 Y85.194 E1.68141
G1 X94.306 Y84.543 E1.70421
G1 X94.781 Y83.935 E1.72712
G1 X95.219 Y83.474 E1.74600
G1 X95.695 Y83.052 E1.76488
G1 X96.323 Y82.596 E1.78791
G1 X96.867 Y82.276 E1.80668
G1 X97.570 Y81.948 E1.82971
G1 X98.166 Y81.737 E1.84847
G1 X98.915 Y81.550 E1.87138
G1 X99.675 Y81.443 E1.89418
G1 X100.446 Y81.416 E1.91709
G1 X100.953 Y81.443 E1.93218
G1 X101.461 Y81.505 E1.94738
G1 X101.964 Y81.603 E1.96258
G1 X102.459 Y81.735 E1.97778
G1 X102.943 Y81.902 E1.99298
G1 X103.412 Y82.101 E2.00811
G1 X103.981 Y82.397 E2.02717
G1 X104.416 Y82.669 E2.04239
G1 X104.830 Y82.970 E2.05759
G1 X105.222 Y83.299 E2.07279
G1 X105.588 Y83.652 E2.08787
G1 X106.017 Y84.137 E2.10711
G1 X106.323 Y84.543 E2.12219
G1 X106.685 Y85.122 E2.14247
G1 X105.369 Y85.667 E2.18474
G1 X104.856 Y84.960 E2.21068
G1 X104.563 Y84.635 E2.22365
G1 X104.122 Y84.224 E2.24156
G1 X103.847 Y84.009 E2.25192
G1 X103.675 Y83.449 E2.26931
G1 X103.438 Y83.078 E2.28237
G1 X103.150 Y82.769 E2.29493
G1 X102.675 Y82.421 E2.31242
G1 X102.147 Y82.166 E2.32982
G1 X101.705 Y82.018 E2.34367
G1 X101.114 Y81.894 E2.36157
G1 X100.637 Y81.844 E2.37583
G1 X100.021 Y81.843 E2.39413
G1 X99.541 Y81.889 E2.40842
G1 X98.926 Y82.017 E2.42708
G1 X98.504 Y82.157 E2.44028
G1 X97.968 Y82.414 E2.45792
G1 X97.622 Y82.650 E2.47037
G1 X97.323 Y82.923 E2.48241
G1 X97.055 Y83.266 E2.49531
G1 X96.823 Y83.798 E2.51254
G1 X96.798 Y84.001 E2.51862
G1 X96.668 Y84.091 E2.52332
G1 X96.064 Y84.635 E2.54745
G1 X95.650 Y85.111 E2.56618
G1 X95.569 Y85.229 E2.57044
G1 X95.466 Y85.235 E2.57351
G1 X94.900 Y85.446 E2.59144
G1 X94.428 Y85.814 E2.60921
G1 X94.152 Y86.139 E2.62185
G1 X93.934 Y86.482 E2.63395
G1 X93.751 Y86.864 E2.64650
G1 X93.560 Y87.437 E2.66443
G1 X93.438 Y88.092 E2.68424
G1 X93.398 Y88.750 E2.70380
G1 X93.437 Y89.403 E2.72324
G1 X93.543 Y89.999 E2.74120
G1 X93.754 Y90.646 E2.76140
G1 X94.038 Y91.197 E2.77980
G1 X94.414 Y91.676 E2.79789
G1 X94.900 Y92.054 E2.81617
G1 X95.466 Y92.265 E2.83410
G1 X95.569 Y92.271 E2.83716
G1 X95.650 Y92.389 E2.84142
G1 X96.064 Y92.865 E2.86015
G1 X96.668 Y93.409 E2.88429
G1 X96.798 Y93.499 E2.88898
G1 X96.817 Y93.651 E2.89352
G1 X96.902 Y93.927 E2.90211
G1 X97.183 Y94.421 E2.91899
G1 X97.617 Y94.851 E2.93712
G1 X98.124 Y95.172 E2.95494
G1 X98.526 Y95.352 E2.96800
G1 X99.123 Y95.533 E2.98653
G1 X99.757 Y95.637 E3.00560
G1 X100.204 Y95.664 E3.01891
G1 X100.643 Y95.655 E3.03195
G1 X101.079 Y95.611 E3.04494
G1 X101.504 Y95.532 E3.05778
G1 X101.914 Y95.418 E3.07043
G1 X102.305 Y95.267 E3.08286
G1 X102.670 Y95.079 E3.09507
G1 X103.021 Y94.840 E3.10767
G1 X103.445 Y94.421 E3.12535
G1 X103.726 Y93.927 E3.14224
G1 X103.811 Y93.651 E3.15083
G1 X103.829 Y93.505 E3.15517
G1 X104.116 Y93.281 E3.16599
G1 X104.429 Y92.999 E3.17849
G1 X104.851 Y92.546 E3.19687
G1 X105.369 Y91.833 E3.22305
G1 X106.636 Y92.358 E3.26376
G1 X107.191 Y92.201 F7800.000
G1 X106.909 Y92.710 E3.28102 F1500.000
G1 X106.539 Y93.270 E3.30095
G1 X106.207 Y93.695 E3.31696
G1 X105.849 Y94.092 E3.33283
G1 X105.360 Y94.556 E3.35286
G1 X104.943 Y94.894 E3.36877
G1 X104.504 Y95.202 E3.38471
G1 X104.043 Y95.478 E3.40066
G1 X103.567 Y95.721 E3.41653
G1 X102.943 Y95.979 E3.43660
G1 X102.434 Y96.145 E3.45247
G1 X101.913 Y96.274 E3.46841
G1 X101.387 Y96.367 E3.48428
G1 X100.714 Y96.432 E3.50435
G1 X100.182 Y96.441 E3.52015
G1 X99.512 Y96.400 E3.54007
G1 X98.712 Y96.274 E3.56412
G1 X98.067 Y96.107 E3.58390
G1 X97.308 Y95.831 E3.60788
G1 X96.585 Y95.478 E3.63179
G1 X95.903 Y95.052 E3.65564
G1 X95.371 Y94.644 E3.67555
G1 X94.779 Y94.092 E3.69959
G1 X94.338 Y93.593 E3.71938
G1 X93.861 Y92.937 E3.74343
G1 X93.523 Y92.363 E3.76321
G1 X93.181 Y91.629 E3.78726
G1 X92.959 Y91.001 E3.80704
G1 X92.763 Y90.218 E3.83102
G1 X92.651 Y89.420 E3.85492
G1 X92.623 Y88.613 E3.87890
G1 X92.664 Y87.948 E3.89868
G1 X92.790 Y87.148 E3.92273
G1 X92.957 Y86.503 E3.94251
G1 X93.233 Y85.744 E3.96649
G1 X93.586 Y85.021 E3.99040
G1 X94.013 Y84.338 E4.01430
G1 X94.510 Y83.702 E4.03828
G1 X94.970 Y83.217 E4.05813
G1 X95.471 Y82.774 E4.07799
G1 X96.127 Y82.297 E4.10204
G1 X96.701 Y81.959 E4.12182
G1 X97.435 Y81.617 E4.14587
G1 X98.063 Y81.395 E4.16565
G1 X98.846 Y81.199 E4.18963
G1 X99.644 Y81.087 E4.21353
G1 X100.449 Y81.059 E4.23746
G1 X100.985 Y81.087 E4.25338
G1 X101.517 Y81.152 E4.26932
G1 X102.044 Y81.255 E4.28527
G1 X102.563 Y81.394 E4.30121
G1 X103.071 Y81.568 E4.31715
G1 X103.564 Y81.778 E4.33307
G1 X104.158 Y82.087 E4.35295
G1 X104.616 Y82.373 E4.36896
G1 X105.050 Y82.688 E4.38490
G1 X105.461 Y83.033 E4.40084
G1 X105.846 Y83.405 E4.41671
G1 X106.294 Y83.911 E4.43678
G1 X106.615 Y84.338 E4.45265
