; generated by Slic3r 1.2.9 on 2017-05-12 at 21:14:57

; external perimeters extrusion width = 0.35mm
; perimeters extrusion width = 0.52mm
; infill extrusion width = 0.52mm
; solid infill extrusion width = 0.52mm
; top infill extrusion width = 0.35mm

M107
M190 S100 ; set bed temperature
M104 S210 ; set temperature
G28 ; home all axes
G1 Z5 F5000 ; lift nozzle
M109 S210 ; wait for temperature to be reached
G21 ; set units to millimeters
G90 ; use absolute coordinates
M82 ; use absolute distances for extrusion
G92 E0
G1 Z0.200 F7800.000
G1 E-1.00000 F3600.00000
G92 E0
G1 X65.371 Y70.261 F7800.000
G1 E1.00000 F3600.00000
G1 X66.928 Y69.556 E1.05074 F1500.000
G1 X133.072 Y69.556 E3.01463
G1 X134.282 Y69.946 E3.05238
G1 X135.036 Y70.970 E3.09014 F1500.000
G1 X134.861 Y72.670 E3.14088
G1 X101.790 Y129.416 E5.09100
G1 X100.843 Y130.265 E5.12876
G1 X99.579 Y130.401 E5.16651
G1 X98.210 Y129.416 E5.21657
G1 X65.139 Y72.670 E7.16669
G1 X64.867 Y71.428 E7.20445
G1 X65.351 Y70.309 E7.24064
G1 X65.729 Y70.457 F7800.000
G1 X65.791 Y70.344 E7.24446 F1500.000
G1 X66.928 Y69.913 E7.28058
G1 X133.072 Y69.913 E9.24446
G1 X134.158 Y70.301 E9.27872
G1 X134.753 Y71.290 E9.31298 F1500.000
G1 X134.553 Y72.490 E9.34910
G1 X101.481 Y129.236 E11.29922
G1 X100.598 Y129.979 E11.33348
G1 X99.445 Y129.995 E11.36774
G1 X98.519 Y129.236 E11.40327
G1 X65.447 Y72.490 E13.35340
G1 X65.236 Y71.356 E13.38766
G1 X65.704 Y70.503 E13.41654
G1 X66.053 Y70.694 F7800.000
G1 X66.215 Y70.472 E13.42469 F1500.000
G1 X66.928 Y70.270 E13.44670
G1 X133.072 Y70.270 E15.41059
G1 X134.019 Y70.655 E15.44095
G1 X134.428 Y71.592 E15.47131 F1500.000
G1 X134.244 Y72.310 E15.49333
G1 X101.172 Y129.056 E17.44345
G1 X100.363 Y129.681 E17.47381
G1 X99.347 Y129.563 E17.50417
G1 X98.828 Y129.056 E17.52571
G1 X65.756 Y72.310 E19.47583
G1 X65.612 Y71.298 E19.50620
G1 X66.022 Y70.736 E19.52685
G1 E18.52685 F3600.00000
G92 E0
G1 X105.939 Y99.874 F7800.000
G1 E1.00000 F3600.00000
G1 X105.117 Y100.362 E1.02838 F1500.000
G1 X104.272 Y100.765 E1.05618
G1 X103.733 Y100.977 E1.07338
G1 X103.191 Y101.158 E1.09034
G1 X102.640 Y101.311 E1.10731
G1 X102.083 Y101.435 E1.12428
G1 X101.519 Y101.529 E1.14124
G1 X100.943 Y101.595 E1.15844
G1 X100.000 Y101.636 E1.18648
G1 X99.057 Y101.595 E1.21452
G1 X98.481 Y101.529 E1.23172
G1 X97.917 Y101.435 E1.24868
G1 X97.360 Y101.311 E1.26565
G1 X96.809 Y101.158 E1.28262
G1 X96.267 Y100.977 E1.29958
G1 X95.728 Y100.765 E1.31678
G1 X94.883 Y100.362 E1.34458
G1 X94.379 Y100.077 E1.36179
G1 X93.890 Y99.765 E1.37899
G1 X93.137 Y99.208 E1.40679
G1 X92.697 Y98.832 E1.42399
G1 X92.282 Y98.439 E1.44096
G1 X91.889 Y98.024 E1.45792
G1 X91.518 Y97.590 E1.47489
G1 X91.170 Y97.136 E1.49185
G1 X90.846 Y96.665 E1.50882
G1 X90.548 Y96.178 E1.52579
G1 X90.271 Y95.669 E1.54299
G1 X89.883 Y94.817 E1.57079
G1 X89.680 Y94.274 E1.58799
G1 X89.506 Y93.722 E1.60519
G1 X89.287 Y92.811 E1.63299
G1 X89.192 Y92.240 E1.65020
G1 X89.126 Y91.664 E1.66740
G1 X89.085 Y90.721 E1.69543
G1 X89.126 Y89.778 E1.72347
G1 X89.192 Y89.202 E1.74067
G1 X89.287 Y88.630 E1.75788
G1 X89.506 Y87.720 E1.78568
G1 X89.680 Y87.168 E1.80288
G1 X89.883 Y86.625 E1.82008
G1 X90.271 Y85.773 E1.84788
G1 X90.548 Y85.264 E1.86508
G1 X90.846 Y84.776 E1.88205
G1 X91.170 Y84.306 E1.89901
G1 X91.518 Y83.852 E1.91598
G1 X91.889 Y83.418 E1.93295
G1 X92.282 Y83.003 E1.94991
G1 X92.697 Y82.610 E1.96688
G1 X93.137 Y82.234 E1.98408
G1 X93.890 Y81.677 E2.01188
G1 X94.379 Y81.365 E2.02908
G1 X94.883 Y81.080 E2.04629
G1 X95.735 Y80.674 E2.07432
G1 X96.620 Y80.343 E2.10236
G1 X97.175 Y80.178 E2.11956
G1 X97.731 Y80.045 E2.13653
G1 X98.293 Y79.941 E2.15349
G1 X98.859 Y79.866 E2.17046
G1 X99.429 Y79.821 E2.18742
G1 X99.999 Y79.806 E2.20436 F1500.000
G1 X100.943 Y79.847 E2.23242
G1 X101.519 Y79.913 E2.24963
G1 X102.090 Y80.008 E2.26683
G1 X103.001 Y80.227 E2.29463
G1 X103.553 Y80.401 E2.31183
G1 X104.089 Y80.601 E2.32880
G1 X104.613 Y80.829 E2.34576
G1 X105.124 Y81.084 E2.36273
G1 X105.621 Y81.365 E2.37970
G1 X106.110 Y81.677 E2.39690
G1 X106.863 Y82.234 E2.42470
G1 X107.303 Y82.610 E2.44190
G1 X107.718 Y83.003 E2.45886
G1 X108.111 Y83.418 E2.47583
G1 X108.482 Y83.852 E2.49280
G1 X108.830 Y84.306 E2.50977
G1 X109.154 Y84.776 E2.52673
G1 X109.452 Y85.264 E2.54369
G1 X109.724 Y85.765 E2.56063
G1 X110.117 Y86.625 E2.58869
G1 X110.320 Y87.168 E2.60590
G1 X110.494 Y87.720 E2.62310
G1 X110.713 Y88.630 E2.65090
G1 X110.808 Y89.202 E2.66810
G1 X110.873 Y89.769 E2.68504
G1 X110.915 Y90.721 E2.71334
G1 X110.874 Y91.664 E2.74138
G1 X110.808 Y92.240 E2.75858
G1 X110.713 Y92.811 E2.77578
G1 X110.494 Y93.722 E2.80358
G1 X110.320 Y94.274 E2.82079
G1 X110.117 Y94.817 E2.83799
G1 X109.729 Y95.669 E2.86579
G1 X109.452 Y96.178 E2.88299
G1 X109.154 Y96.665 E2.89996
G1 X108.830 Y97.136 E2.91692
G1 X108.482 Y97.590 E2.93389
G1 X108.111 Y98.024 E2.95085
G1 X107.718 Y98.439 E2.96782
G1 X107.303 Y98.832 E2.98479
G1 X106.863 Y99.208 E3.00199
G1 X105.983 Y99.846 E3.03424
G1 X105.747 Y99.573 F7800.000
G1 X104.952 Y100.045 E3.06169 F1500.000
G1 X104.130 Y100.437 E3.08875
G1 X103.611 Y100.642 E3.10531
G1 X103.087 Y100.817 E3.12171
G1 X102.554 Y100.965 E3.13813
G1 X102.014 Y101.084 E3.15454
G1 X101.469 Y101.175 E3.17095
G1 X100.915 Y101.239 E3.18750
G1 X100.000 Y101.279 E3.21470
G1 X99.085 Y101.239 E3.24191
G1 X98.531 Y101.175 E3.25846
G1 X97.986 Y101.084 E3.27487
G1 X97.446 Y100.965 E3.29128
G1 X96.913 Y100.817 E3.30770
G1 X96.389 Y100.642 E3.32410
G1 X95.870 Y100.437 E3.34066
G1 X95.048 Y100.045 E3.36772
G1 X94.563 Y99.770 E3.38427
G1 X94.092 Y99.471 E3.40083
G1 X93.360 Y98.929 E3.42789
G1 X92.936 Y98.567 E3.44444
G1 X92.535 Y98.186 E3.46085
G1 X92.154 Y97.785 E3.47726
G1 X91.795 Y97.365 E3.49367
G1 X91.459 Y96.926 E3.51008
G1 X91.146 Y96.471 E3.52650
G1 X90.857 Y96.000 E3.54291
G1 X90.591 Y95.510 E3.55946
G1 X90.213 Y94.680 E3.58652
G1 X90.018 Y94.158 E3.60307
G1 X89.850 Y93.626 E3.61963
G1 X89.637 Y92.740 E3.64669
G1 X89.545 Y92.190 E3.66324
G1 X89.482 Y91.636 E3.67980
G1 X89.442 Y90.721 E3.70700
G1 X89.482 Y89.806 E3.73420
G1 X89.545 Y89.252 E3.75076
G1 X89.637 Y88.702 E3.76731
G1 X89.850 Y87.816 E3.79437
G1 X90.018 Y87.284 E3.81093
G1 X90.213 Y86.762 E3.82748
G1 X90.591 Y85.932 E3.85454
G1 X90.857 Y85.442 E3.87109
G1 X91.146 Y84.971 E3.88751
G1 X91.459 Y84.516 E3.90391
G1 X91.795 Y84.077 E3.92033
G1 X92.154 Y83.657 E3.93674
G1 X92.535 Y83.256 E3.95315
G1 X92.936 Y82.875 E3.96956
G1 X93.360 Y82.513 E3.98611
G1 X94.092 Y81.971 E4.01317
G1 X94.563 Y81.672 E4.02973
G1 X95.048 Y81.397 E4.04628
G1 X95.875 Y81.003 E4.07348
G1 X96.733 Y80.682 E4.10069
G1 X97.268 Y80.523 E4.11724
G1 X97.805 Y80.394 E4.13365
G1 X98.349 Y80.294 E4.15006
G1 X98.896 Y80.222 E4.16647
G1 X99.447 Y80.178 E4.18288
G1 X99.996 Y80.164 E4.19917 F1500.000
G1 X100.915 Y80.203 E4.22649
G1 X101.469 Y80.266 E4.24305
G1 X102.019 Y80.358 E4.25961
G1 X102.905 Y80.571 E4.28667
G1 X103.437 Y80.739 E4.30322
G1 X103.955 Y80.932 E4.31963
G1 X104.462 Y81.153 E4.33604
G1 X104.956 Y81.399 E4.35245
G1 X105.437 Y81.672 E4.36886
G1 X105.908 Y81.971 E4.38542
G1 X106.640 Y82.513 E4.41248
G1 X107.064 Y82.875 E4.42903
G1 X107.465 Y83.256 E4.44544
G1 X107.846 Y83.657 E4.46185
G1 X108.205 Y84.077 E4.47826
G1 X108.541 Y84.516 E4.49468
G1 X108.854 Y84.971 E4.51109
G1 X109.143 Y85.442 E4.52749
G1 X109.405 Y85.924 E4.54379
G1 X109.787 Y86.761 E4.57110
G1 X109.982 Y87.284 E4.58766
G1 X110.150 Y87.816 E4.60422
G1 X110.362 Y88.702 E4.63128
G1 X110.455 Y89.252 E4.64783
G1 X110.517 Y89.797 E4.66412
G1 X110.558 Y90.721 E4.69159
G1 X110.518 Y91.636 E4.71879
G1 X110.455 Y92.190 E4.73535
G1 X110.362 Y92.740 E4.75190
G1 X110.150 Y93.626 E4.77896
G1 X109.982 Y94.158 E4.79552
G1 X109.787 Y94.680 E4.81207
G1 X109.409 Y95.510 E4.83913
G1 X109.143 Y96.000 E4.85568
G1 X108.854 Y96.471 E4.87209
G1 X108.541 Y96.926 E4.88851
G1 X108.205 Y97.365 E4.90492
G1 X107.846 Y97.785 E4.92133
G1 X107.465 Y98.186 E4.93774
G1 X107.064 Y98.567 E4.95415
G1 X106.640 Y98.929 E4.97070
G1 X105.791 Y99.545 E5.00184
G1 X105.555 Y99.272 F7800.000
G1 X104.787 Y99.728 E5.02837 F900.000
G1 X103.987 Y100.110 E5.05469
G1 X103.489 Y100.306 E5.07059
G1 X102.982 Y100.475 E5.08645
G1 X102.468 Y100.618 E5.10231
G1 X101.946 Y100.734 E5.11816
G1 X101.420 Y100.822 E5.13402
G1 X100.887 Y100.882 E5.14992
G1 X100.000 Y100.921 E5.17629
G1 X99.113 Y100.882 E5.20266
G1 X98.580 Y100.822 E5.21857
G1 X98.054 Y100.734 E5.23442
G1 X97.532 Y100.618 E5.25028
G1 X97.018 Y100.475 E5.26614
G1 X96.511 Y100.306 E5.28199
G1 X96.013 Y100.110 E5.29790
G1 X95.213 Y99.728 E5.32422
G1 X94.747 Y99.464 E5.34012
G1 X94.295 Y99.176 E5.35603
G1 X93.582 Y98.649 E5.38235
G1 X93.175 Y98.301 E5.39825
G1 X92.787 Y97.934 E5.41411
G1 X92.420 Y97.546 E5.42997
G1 X92.073 Y97.140 E5.44582
G1 X91.748 Y96.716 E5.46168
G1 X91.446 Y96.276 E5.47753
G1 X91.166 Y95.821 E5.49339
G1 X90.911 Y95.350 E5.50930
G1 X90.543 Y94.544 E5.53561
G1 X90.356 Y94.042 E5.55152
G1 X90.195 Y93.531 E5.56743
G1 X89.988 Y92.669 E5.59375
G1 X89.899 Y92.140 E5.60965
G1 X89.839 Y91.608 E5.62556
G1 X89.800 Y90.721 E5.65193
G1 X89.839 Y89.834 E5.67830
G1 X89.899 Y89.301 E5.69420
G1 X89.988 Y88.773 E5.71011
G1 X90.195 Y87.911 E5.73643
G1 X90.356 Y87.400 E5.75234
G1 X90.543 Y86.898 E5.76825
G1 X90.911 Y86.092 E5.79456
G1 X91.166 Y85.621 E5.81047
G1 X91.446 Y85.166 E5.82633
G1 X91.748 Y84.726 E5.84218
G1 X92.073 Y84.302 E5.85804
G1 X92.420 Y83.896 E5.87389
G1 X92.787 Y83.508 E5.88975
G1 X93.175 Y83.141 E5.90560
G1 X93.582 Y82.793 E5.92151
G1 X94.295 Y82.266 E5.94783
G1 X94.747 Y81.978 E5.96374
G1 X95.213 Y81.714 E5.97964
G1 X96.014 Y81.332 E6.00601
G1 X96.846 Y81.021 E6.03238
G1 X97.360 Y80.868 E6.04829
G1 X97.879 Y80.744 E6.06414
G1 X98.404 Y80.646 E6.08000
G1 X98.934 Y80.577 E6.09585
G1 X99.466 Y80.535 E6.11171
G1 X99.993 Y80.521 E6.12736 F900.000
G1 X100.887 Y80.559 E6.15393
G1 X101.420 Y80.620 E6.16984
G1 X101.948 Y80.709 E6.18575
G1 X102.810 Y80.916 E6.21207
G1 X103.321 Y81.077 E6.22797
G1 X103.821 Y81.264 E6.24383
G1 X104.311 Y81.477 E6.25968
G1 X104.789 Y81.715 E6.27554
G1 X105.253 Y81.978 E6.29140
G1 X105.705 Y82.266 E6.30730
G1 X106.418 Y82.793 E6.33362
G1 X106.825 Y83.141 E6.34953
G1 X107.213 Y83.508 E6.36538
G1 X107.580 Y83.896 E6.38124
G1 X107.927 Y84.302 E6.39709
G1 X108.252 Y84.726 E6.41295
G1 X108.554 Y85.166 E6.42880
G1 X108.833 Y85.621 E6.44466
G1 X109.085 Y86.084 E6.46031
G1 X109.457 Y86.898 E6.48688
G1 X109.644 Y87.400 E6.50279
G1 X109.805 Y87.911 E6.51870
G1 X110.012 Y88.773 E6.54502
G1 X110.101 Y89.301 E6.56092
G1 X110.161 Y89.825 E6.57657
G1 X110.200 Y90.721 E6.60320
G1 X110.161 Y91.608 E6.62957
G1 X110.101 Y92.140 E6.64548
G1 X110.012 Y92.669 E6.66138
G1 X109.805 Y93.531 E6.68770
G1 X109.644 Y94.042 E6.70361
G1 X109.457 Y94.544 E6.71952
G1 X109.089 Y95.350 E6.74583
G1 X108.834 Y95.821 E6.76174
G1 X108.554 Y96.276 E6.77760
G1 X108.252 Y96.716 E6.79345
G1 X107.927 Y97.140 E6.80931
G1 X107.580 Y97.546 E6.82516
G1 X107.213 Y97.934 E6.84102
G1 X106.825 Y98.301 E6.85687
G1 X106.418 Y98.649 E6.87278
G1 X105.600 Y99.244 E6.90281
G1 X105.570 Y99.622 F7800.000
G1 X100.000 Y126.558 F7800.000
G1 X68.519 Y72.541 E8.75913 F1500.000
G1 X131.481 Y72.541 E10.62855
G1 X100.026 Y126.512 E12.48331
G1 X100.000 Y127.267 F7800.000
G1 X67.898 Y72.184 E14.37627 F1500.000
G1 X132.102 Y72.184 E16.28259
G1 X100.026 Y127.221 E18.17399
G1 X100.000 Y127.976 F7800.000
G1 X67.276 Y71.827 E20.10359 F900.000
G1 X132.724 Y71.827 E22.04681
G1 X100.026 Y127.930 E23.97485
G1 X99.939 Y127.631 F7800.000
G1 X99.162 Y124.610 F7800.000
G1 X100.277 Y125.725 E24.02181 F1500.000
G1 X100.463 Y125.405 E24.03284
G1 X98.454 Y123.396 E24.11744
G1 X97.747 Y122.182 F7800.000
G1 X100.650 Y125.085 E24.23968 F1500.000
G1 X100.836 Y124.766 E24.25070
G1 X97.039 Y120.969 E24.41058
G1 X96.332 Y119.755 F7800.000
G1 X101.023 Y124.446 E24.60810 F1500.000
G1 X101.209 Y124.126 E24.61913
G1 X95.624 Y118.541 E24.85428
G1 X94.917 Y117.327 F7800.000
G1 X101.396 Y123.806 E25.12708 F1500.000
G1 X101.582 Y123.486 E25.13810
G1 X94.210 Y116.113 E25.44854
G1 X93.502 Y114.899 F7800.000
G1 X101.768 Y123.166 E25.79662 F1500.000
G1 X101.955 Y122.846 E25.80764
G1 X92.795 Y113.686 E26.19336
G1 X92.087 Y112.472 F7800.000
G1 X102.141 Y122.526 E26.61671 F1500.000
G1 X102.328 Y122.206 E26.62774
G1 X91.380 Y111.258 E27.08873
G1 X90.672 Y110.044 F7800.000
G1 X102.514 Y121.886 E27.58736 F1500.000
G1 X102.701 Y121.566 E27.59839
G1 X89.965 Y108.830 E28.13466
G1 X89.258 Y107.617 F7800.000
G1 X102.887 Y121.246 E28.70857 F1500.000
G1 X103.074 Y120.926 E28.71960
G1 X88.550 Y106.403 E29.33115
G1 X87.843 Y105.189 F7800.000
G1 X103.260 Y120.606 E29.98034 F1500.000
G1 X103.447 Y120.286 E29.99137
G1 X87.135 Y103.975 E30.67820
G1 X86.428 Y102.761 F7800.000
G1 X103.633 Y119.966 E31.40266 F1500.000
G1 X103.820 Y119.646 E31.41369
G1 X85.721 Y101.547 E32.17580
G1 X85.013 Y100.334 F7800.000
G1 X104.006 Y119.326 E32.97555 F1500.000
G1 X104.192 Y119.007 E32.98657
G1 X84.306 Y99.120 E33.82396
G1 X83.598 Y97.906 F7800.000
G1 X104.379 Y118.687 E34.69899 F1500.000
G1 X104.565 Y118.367 E34.71001
G1 X82.891 Y96.692 E35.62268
G1 X82.183 Y95.478 F7800.000
G1 X104.752 Y118.047 E36.57299 F1500.000
G1 X104.938 Y117.727 E36.58401
G1 X81.476 Y94.264 E37.57196
G1 X80.769 Y93.051 F7800.000
G1 X105.125 Y117.407 E38.59754 F1500.000
G1 X105.311 Y117.087 E38.60857
G1 X80.061 Y91.837 E39.67179
G1 X79.354 Y90.623 F7800.000
G1 X105.498 Y116.767 E40.77266 F1500.000
G1 X105.684 Y116.447 E40.78368
G1 X78.646 Y89.409 E41.92218
G1 X77.939 Y88.195 F7800.000
G1 X105.871 Y116.127 E43.09833 F1500.000
G1 X106.057 Y115.807 E43.10935
G1 X77.231 Y86.981 E44.32313
G1 X76.524 Y85.768 F7800.000
G1 X106.244 Y115.487 E45.57456 F1500.000
G1 X106.430 Y115.167 E45.58558
G1 X75.817 Y84.554 E46.87464
G1 X75.109 Y83.340 F7800.000
G1 X106.617 Y114.847 E48.20134 F1500.000
G1 X106.803 Y114.527 E48.21237
G1 X74.402 Y82.126 E49.57671
G1 X73.694 Y80.912 F7800.000
G1 X106.989 Y114.207 E50.97869 F1500.000
G1 X96.675 Y101.361 F7800.000
G1 X107.922 Y112.608 E51.45227 F1500.000
G1 X108.108 Y112.288 E51.46330
G1 X97.364 Y101.544 E51.91571
G1 X98.000 Y101.673 E51.93503
G1 X108.295 Y111.968 E52.36851
G1 X108.481 Y111.648 E52.37954
G1 X98.594 Y101.760 E52.79589
G1 X99.150 Y101.810 E52.81252
G1 X108.668 Y111.328 E53.21329
G1 X108.854 Y111.008 E53.22431
G1 X99.679 Y101.833 E53.61064
G1 X100.185 Y101.833 E53.62570
G1 X109.041 Y110.688 E53.99858
G1 X109.227 Y110.368 E54.00961
G1 X100.670 Y101.811 E54.36991
G1 X101.139 Y101.774 E54.38390
G1 X109.413 Y110.048 E54.73233
G1 X109.600 Y109.728 E54.74335
G1 X101.588 Y101.717 E55.08071
G1 X102.022 Y101.644 E55.09380
G1 X109.786 Y109.408 E55.42074
G1 X109.973 Y109.088 E55.43176
G1 X102.438 Y101.554 E55.74902
G1 X102.843 Y101.452 E55.76145
G1 X110.159 Y108.768 E56.06951
G1 X110.346 Y108.448 E56.08054
G1 X103.238 Y101.341 E56.37983
G1 X103.617 Y101.214 E56.39175
G1 X110.532 Y108.129 E56.68292
G1 X110.719 Y107.809 E56.69394
G1 X103.987 Y101.076 E56.97742
G1 X104.348 Y100.931 E56.98901
G1 X110.905 Y107.489 E57.26513
G1 X111.092 Y107.169 E57.27616
G1 X104.690 Y100.768 E57.54570
G1 X105.033 Y100.604 E57.55701
G1 X111.278 Y106.849 E57.81996
G1 X111.465 Y106.529 E57.83099
G1 X105.365 Y100.429 E58.08784
G1 X105.688 Y100.246 E58.09891
G1 X111.651 Y106.209 E58.34999
G1 X111.837 Y105.889 E58.36102
G1 X105.998 Y100.049 E58.60693
G1 X106.300 Y99.845 E58.61779
G1 X112.024 Y105.569 E58.85880
G1 X112.210 Y105.249 E58.86983
G1 X106.591 Y99.630 E59.10644
G1 X106.882 Y99.415 E59.11722
G1 X112.397 Y104.929 E59.34942
G1 X112.583 Y104.609 E59.36045
G1 X107.160 Y99.186 E59.58879
G1 X107.433 Y98.952 E59.59948
G1 X112.770 Y104.289 E59.82421
G1 X112.956 Y103.969 E59.83524
G1 X107.693 Y98.706 E60.05688
G1 X107.947 Y98.453 E60.06754
G1 X113.143 Y103.649 E60.28633
G1 X113.329 Y103.329 E60.29735
G1 X108.193 Y98.194 E60.51361
G1 X108.429 Y97.923 E60.52429
G1 X113.516 Y103.009 E60.73846
G1 X113.702 Y102.690 E60.74949
G1 X108.661 Y97.648 E60.96177
G1 X108.881 Y97.362 E60.97252
G1 X113.889 Y102.370 E61.18340
G1 X114.075 Y102.050 E61.19442
G1 X109.093 Y97.068 E61.40419
G1 X109.300 Y96.768 E61.41504
G1 X114.261 Y101.730 E61.62398
G1 X114.448 Y101.410 E61.63500
