; generated by Slic3r 1.2.9 on 2017-05-05 at 23:08:25

; external perimeters extrusion width = 0.35mm
; perimeters extrusion width = 0.52mm
; infill extrusion width = 0.52mm
; solid infill extrusion width = 0.52mm
; top infill extrusion width = 0.35mm
; support material extrusion width = 0.35mm

M107
M190 S100 ; set bed temperature
M104 S210 ; set temperature
G28 ; home all axes
G1 Z5 F5000 ; lift nozzle
M109 S210 ; wait for temperature to be reached
G21 ; set units to millimeters
G90 ; use absolute coordinates
M82 ; use absolute distances for extrusion
G92 E0
G1 Z0.200 F7800.000
G1 E-1.00000 F3600.00000
G92 E0
G1 X58.449 Y63.986 F7800.000
G1 E1.00000 F3600.00000
G1 X60.000 Y63.288 E1.05051 F1500.000
G1 X140.000 Y63.288 E3.42581
G1 X141.210 Y63.678 E3.46357
G1 X141.964 Y64.702 E3.50133 F1500.000
G1 X141.794 Y66.395 E3.55184
G1 X101.794 Y135.677 E5.92714
G1 X100.851 Y136.530 E5.96489
G1 X99.587 Y136.671 E6.00265
G1 X98.206 Y135.677 E6.05316
G1 X58.206 Y66.395 E8.42846
G1 X57.939 Y65.151 E8.46622
G1 X58.428 Y64.034 E8.50242
G1 X58.806 Y64.184 F7800.000
G1 X58.868 Y64.072 E8.50623 F1500.000
G1 X60.000 Y63.645 E8.54215
G1 X140.000 Y63.645 E10.91746
G1 X141.087 Y64.033 E10.95171
G1 X141.681 Y65.022 E10.98597 F1500.000
G1 X141.485 Y66.216 E11.02190
G1 X101.485 Y135.498 E13.39720
G1 X100.605 Y136.245 E13.43146
G1 X99.451 Y136.265 E13.46572
G1 X98.515 Y135.498 E13.50164
G1 X58.515 Y66.216 E15.87694
G1 X58.309 Y65.081 E15.91120
G1 X58.780 Y64.230 E15.94009
G1 X59.129 Y64.422 F7800.000
G1 X59.292 Y64.202 E15.94823 F1500.000
G1 X60.000 Y64.002 E15.97009
G1 X140.000 Y64.002 E18.34539
G1 X140.947 Y64.387 E18.37575
G1 X141.357 Y65.324 E18.40611 F1500.000
G1 X141.175 Y66.038 E18.42797
G1 X101.175 Y135.320 E20.80327
G1 X100.368 Y135.947 E20.83363
G1 X99.352 Y135.833 E20.86399
G1 X98.825 Y135.320 E20.88584
G1 X58.825 Y66.038 E23.26115
G1 X58.685 Y65.025 E23.29151
G1 X59.098 Y64.465 E23.31217
G1 E22.31217 F3600.00000
G92 E0
G1 X102.787 Y119.985 F7800.000
G1 E1.00000 F3600.00000
G1 X106.251 Y121.985 E1.11877 F1500.000
G1 X100.000 Y132.813 E1.48998
G1 X93.749 Y121.985 E1.86120
G1 X97.213 Y119.985 E1.97996
G1 X91.299 Y109.742 E2.33116
G1 X87.835 Y111.742 E2.44992
G1 X83.749 Y104.665 E2.69255
G1 X87.213 Y102.665 E2.81132
G1 X81.299 Y92.421 E3.16251
G1 X77.835 Y94.421 E3.28128
G1 X73.749 Y87.344 E3.52391
G1 X77.213 Y85.344 E3.64267
G1 X71.299 Y75.101 E3.99387
G1 X67.835 Y77.101 E4.11263
G1 X61.583 Y66.273 E4.48385
G1 X74.086 Y66.273 E4.85506
G1 X74.086 Y70.273 E4.97383
G1 X85.914 Y70.273 E5.32503
G1 X85.914 Y66.273 E5.44379
G1 X94.086 Y66.273 E5.68642
G1 X94.086 Y70.273 E5.80519
G1 X105.914 Y70.273 E6.15638
G1 X105.914 Y66.273 E6.27515
G1 X114.086 Y66.273 E6.51778
G1 X114.086 Y70.273 E6.63654
G1 X125.914 Y70.273 E6.98774
G1 X125.914 Y66.273 E7.10651
G1 X138.417 Y66.273 E7.47772
G1 X132.165 Y77.101 E7.84894
G1 X128.701 Y75.101 E7.96770
G1 X122.787 Y85.344 E8.31890
G1 X126.251 Y87.344 E8.43766
G1 X122.165 Y94.421 E8.68029
G1 X118.701 Y92.421 E8.79906
G1 X112.787 Y102.665 E9.15025
G1 X116.251 Y104.665 E9.26902
G1 X112.165 Y111.742 E9.51165
G1 X108.701 Y109.742 E9.63041
G1 X102.813 Y119.940 E9.98005
G1 X103.275 Y119.855 F7800.000
G1 X106.739 Y121.855 E10.09882 F1500.000
G1 X100.000 Y133.527 E10.49900
G1 X93.261 Y121.855 E10.89918
G1 X96.725 Y119.855 E11.01794
G1 X91.168 Y110.229 E11.34793
G1 X87.704 Y112.229 E11.46670
G1 X83.261 Y104.534 E11.73053
G1 X86.725 Y102.534 E11.84930
G1 X81.168 Y92.909 E12.17929
G1 X77.704 Y94.909 E12.29806
G1 X73.261 Y87.214 E12.56189
G1 X76.725 Y85.214 E12.68065
G1 X71.168 Y75.588 E13.01065
G1 X67.704 Y77.588 E13.12941
G1 X60.965 Y65.916 E13.52959
G1 X74.443 Y65.916 E13.92977
G1 X74.443 Y69.916 E14.04854
G1 X85.557 Y69.916 E14.37853
G1 X85.557 Y65.916 E14.49730
G1 X94.443 Y65.916 E14.76113
G1 X94.443 Y69.916 E14.87989
G1 X105.557 Y69.916 E15.20989
G1 X105.557 Y65.916 E15.32865
G1 X114.443 Y65.916 E15.59248
G1 X114.443 Y69.916 E15.71125
G1 X125.557 Y69.916 E16.04124
G1 X125.557 Y65.916 E16.16001
G1 X139.035 Y65.916 E16.56019
G1 X132.296 Y77.588 E16.96037
G1 X128.832 Y75.588 E17.07913
G1 X123.275 Y85.214 E17.40913
G1 X126.739 Y87.214 E17.52789
G1 X122.296 Y94.909 E17.79173
G1 X118.832 Y92.909 E17.91049
G1 X113.275 Y102.534 E18.24048
G1 X116.739 Y104.534 E18.35925
G1 X112.296 Y112.229 E18.62308
G1 X108.832 Y110.229 E18.74185
G1 X103.301 Y119.809 E19.07028
G1 X103.763 Y119.724 F7800.000
G1 X107.227 Y121.724 E19.18905 F900.000
G1 X100.000 Y134.241 E19.61819
G1 X92.773 Y121.724 E20.04734
G1 X96.237 Y119.724 E20.16610
G1 X91.037 Y110.717 E20.47489
G1 X87.573 Y112.717 E20.59366
G1 X82.773 Y104.403 E20.87869
G1 X86.237 Y102.403 E20.99746
G1 X81.037 Y93.397 E21.30625
G1 X77.573 Y95.397 E21.42501
G1 X72.773 Y87.083 E21.71005
G1 X76.237 Y85.083 E21.82882
G1 X71.037 Y76.076 E22.13760
G1 X67.573 Y78.076 E22.25637
G1 X60.346 Y65.559 E22.68552
G1 X74.800 Y65.559 E23.11466
G1 X74.800 Y69.559 E23.23343
G1 X85.200 Y69.559 E23.54222
G1 X85.200 Y65.559 E23.66098
G1 X94.800 Y65.559 E23.94602
G1 X94.800 Y69.559 E24.06478
G1 X105.200 Y69.559 E24.37357
G1 X105.200 Y65.559 E24.49234
G1 X114.800 Y65.559 E24.77737
G1 X114.800 Y69.559 E24.89614
G1 X125.200 Y69.559 E25.20493
G1 X125.200 Y65.559 E25.32369
G1 X139.654 Y65.559 E25.75284
G1 X132.427 Y78.076 E26.18199
G1 X128.963 Y76.076 E26.30075
G1 X123.763 Y85.083 E26.60954
G1 X127.227 Y87.083 E26.72830
G1 X122.427 Y95.397 E27.01334
G1 X118.963 Y93.397 E27.13211
G1 X113.763 Y102.403 E27.44089
G1 X117.227 Y104.403 E27.55966
G1 X112.427 Y112.717 E27.84470
G1 X108.963 Y110.717 E27.96346
G1 X103.789 Y119.678 E28.27069
G1 X103.588 Y120.027 F7800.000
G1 X102.910 Y119.166 F7800.000
G1 X102.680 Y118.937 E28.28031 F1500.000
G1 X102.428 Y119.190 E28.29092
G1 X102.680 Y119.442 E28.30152
G1 X102.175 Y119.947 E28.32272
G1 X101.923 Y119.694 E28.33333
G1 X102.175 Y119.442 E28.34393
G1 X101.923 Y119.190 E28.35453
G1 X101.670 Y119.442 E28.36513
G1 X101.418 Y119.190 E28.37573
G1 X101.923 Y118.685 E28.39694
G1 X102.175 Y118.937 E28.40754
G1 X102.428 Y118.685 E28.41814
G1 X102.175 Y118.432 E28.42874
G1 X101.670 Y117.927 E28.44995
G1 X101.418 Y118.180 E28.46055
G1 X101.670 Y118.432 E28.47115
G1 X101.165 Y118.937 E28.49236
G1 X100.913 Y118.685 E28.50296
G1 X101.165 Y118.432 E28.51356
G1 X100.913 Y118.180 E28.52416
G1 X100.660 Y118.432 E28.53477
G1 X100.408 Y118.180 E28.54537
G1 X100.913 Y117.675 E28.56657
G1 X101.165 Y117.927 E28.57717
G1 X101.418 Y117.675 E28.58778
G1 X101.165 Y117.422 E28.59838
G1 X101.670 Y116.917 E28.61958
G1 X101.923 Y117.170 E28.63019
G1 X101.670 Y117.422 E28.64079
G1 X102.175 Y117.927 E28.66199
G1 X102.428 Y117.675 E28.67259
G1 X102.175 Y117.422 E28.68320
G1 X102.428 Y117.170 E28.69380
G1 X102.680 Y117.422 E28.70440
G1 X102.933 Y117.170 E28.71500
G1 X102.428 Y116.665 E28.73621
G1 X102.175 Y116.917 E28.74681
G1 X101.923 Y116.665 E28.75741
G1 X102.680 Y115.907 E28.78922
G1 X102.933 Y116.160 E28.79982
G1 X102.680 Y116.412 E28.81042
G1 X103.185 Y116.917 E28.83163
G1 X103.438 Y116.665 E28.84223
G1 X103.185 Y116.412 E28.85283
G1 X103.438 Y116.160 E28.86343
G1 X103.690 Y116.412 E28.87403
G1 X103.943 Y116.160 E28.88464
G1 X103.438 Y115.655 E28.90584
G1 X103.185 Y115.907 E28.91644
G1 X102.933 Y115.655 E28.92705
G1 X103.438 Y115.150 E28.94825
G1 X103.690 Y115.402 E28.95885
G1 X103.943 Y115.150 E28.96945
G1 X103.690 Y114.897 E28.98006
G1 X104.195 Y114.392 E29.00126
G1 X104.448 Y114.645 E29.01186
G1 X104.195 Y114.897 E29.02246
G1 X104.448 Y115.150 E29.03307
G1 X104.700 Y114.897 E29.04367
G1 X104.953 Y115.150 E29.05427
G1 X104.448 Y115.655 E29.07548
G1 X104.195 Y115.402 E29.08608
G1 X103.943 Y115.655 E29.09668
G1 X104.573 Y116.285 E29.12314
G1 X104.758 Y115.965 F7800.000
G1 X104.700 Y115.907 E29.12556 F1500.000
G1 X104.915 Y115.692 E29.13459
G1 X104.388 Y116.605 F7800.000
G1 X104.195 Y116.412 E29.14269 F1500.000
G1 X103.943 Y116.665 E29.15329
G1 X104.195 Y116.917 E29.16389
G1 X103.943 Y117.170 E29.17450
G1 X103.690 Y116.917 E29.18510
G1 X103.438 Y117.170 E29.19570
G1 X103.834 Y117.565 E29.21232
G1 X103.649 Y117.886 F7800.000
G1 X103.185 Y117.422 E29.23179 F1500.000
G1 X102.933 Y117.675 E29.24239
G1 X103.185 Y117.927 E29.25299
G1 X102.933 Y118.180 E29.26359
G1 X102.680 Y117.927 E29.27420
G1 X102.428 Y118.180 E29.28480
G1 X102.933 Y118.685 E29.30600
G1 X103.185 Y118.432 E29.31661
G1 X103.279 Y118.526 E29.32055
G1 X103.464 Y118.206 F7800.000
G1 X103.438 Y118.180 E29.32165 F1500.000
G1 X103.536 Y118.082 E29.32575
G1 X102.793 Y120.339 F7800.000
G1 X102.680 Y120.452 E29.33049 F1500.000
G1 X102.428 Y120.199 E29.34109
G1 X102.175 Y120.452 E29.35169
G1 X102.428 Y120.704 E29.36230
G1 X102.175 Y120.957 E29.37290
G1 X101.923 Y120.704 E29.38350
G1 X101.418 Y121.209 E29.40470
G1 X101.670 Y121.462 E29.41531
G1 X101.923 Y121.209 E29.42591
G1 X102.175 Y121.462 E29.43651
G1 X101.923 Y121.714 E29.44711
G1 X102.175 Y121.967 E29.45772
G1 X102.680 Y121.462 E29.47892
G1 X102.428 Y121.209 E29.48952
G1 X102.680 Y120.957 E29.50012
G1 X103.185 Y121.462 E29.52133
G1 X102.933 Y121.714 E29.53193
G1 X103.185 Y121.967 E29.54253
G1 X103.438 Y121.714 E29.55313
G1 X103.943 Y122.219 E29.57434
G1 X103.690 Y122.472 E29.58494
G1 X103.438 Y122.219 E29.59554
G1 X103.185 Y122.472 E29.60615
G1 X103.438 Y122.724 E29.61675
G1 X103.185 Y122.977 E29.62735
G1 X102.680 Y122.472 E29.64855
G1 X102.933 Y122.219 E29.65916
G1 X102.680 Y121.967 E29.66976
G1 X101.923 Y122.724 E29.70157
G1 X102.175 Y122.977 E29.71217
G1 X102.428 Y122.724 E29.72277
G1 X102.933 Y123.229 E29.74397
G1 X102.680 Y123.482 E29.75458
G1 X102.428 Y123.229 E29.76518
G1 X102.175 Y123.482 E29.77578
G1 X102.428 Y123.734 E29.78638
G1 X102.175 Y123.987 E29.79698
G1 X101.670 Y123.482 E29.81819
G1 X101.923 Y123.229 E29.82879
G1 X101.670 Y122.977 E29.83939
G1 X101.418 Y123.229 E29.85000
G1 X100.913 Y122.724 E29.87120
G1 X101.165 Y122.472 E29.88180
G1 X101.418 Y122.724 E29.89240
G1 X101.923 Y122.219 E29.91361
G1 X101.670 Y121.967 E29.92421
G1 X101.418 Y122.219 E29.93481
G1 X101.165 Y121.967 E29.94541
G1 X101.418 Y121.714 E29.95602
G1 X101.165 Y121.462 E29.96662
G1 X100.660 Y121.967 E29.98782
G1 X100.913 Y122.219 E29.99843
G1 X100.660 Y122.472 E30.00903
G1 X100.155 Y121.967 E30.03023
G1 X100.408 Y121.714 E30.04083
G1 X100.155 Y121.462 E30.05144
G1 X99.903 Y121.714 E30.06204
G1 X99.398 Y121.209 E30.08324
G1 X99.650 Y120.957 E30.09384
G1 X99.903 Y121.209 E30.10445
G1 X100.155 Y120.957 E30.11505
G1 X99.903 Y120.704 E30.12565
G1 X100.155 Y120.452 E30.13625
G1 X100.660 Y120.957 E30.15746
G1 X100.408 Y121.209 E30.16806
G1 X100.660 Y121.462 E30.17866
G1 X101.165 Y120.957 E30.19987
G1 X100.913 Y120.704 E30.21047
G1 X101.165 Y120.452 E30.22107
G1 X101.418 Y120.704 E30.23167
G1 X101.923 Y120.199 E30.25288
G1 X101.670 Y119.947 E30.26348
G1 X101.418 Y120.199 E30.27408
G1 X101.165 Y119.947 E30.28468
G1 X101.418 Y119.694 E30.29529
G1 X101.165 Y119.442 E30.30589
G1 X100.660 Y119.947 E30.32709
G1 X100.913 Y120.199 E30.33769
G1 X100.660 Y120.452 E30.34830
G1 X100.408 Y120.199 E30.35890
G1 X99.903 Y119.694 E30.38010
G1 X100.155 Y119.442 E30.39071
G1 X100.408 Y119.694 E30.40131
G1 X100.913 Y119.190 E30.42251
G1 X100.660 Y118.937 E30.43311
G1 X100.408 Y119.190 E30.44372
G1 X100.155 Y118.937 E30.45432
G1 X100.408 Y118.685 E30.46492
G1 X100.155 Y118.432 E30.47552
G1 X99.650 Y118.937 E30.49673
G1 X99.903 Y119.190 E30.50733
G1 X99.650 Y119.442 E30.51793
G1 X99.398 Y119.190 E30.52853
G1 X98.893 Y119.694 E30.54974
G1 X99.145 Y119.947 E30.56034
G1 X99.398 Y119.694 E30.57094
G1 X99.903 Y120.199 E30.59215
G1 X99.650 Y120.452 E30.60275
G1 X99.398 Y120.199 E30.61335
G1 X99.145 Y120.452 E30.62395
G1 X99.398 Y120.704 E30.63455
G1 X99.145 Y120.957 E30.64516
G1 X98.640 Y120.452 E30.66636
G1 X98.893 Y120.199 E30.67696
G1 X98.640 Y119.947 E30.68757
G1 X98.388 Y120.199 E30.69817
G1 X97.883 Y119.694 E30.71937
G1 X98.135 Y119.442 E30.72997
G1 X98.388 Y119.694 E30.74058
G1 X98.893 Y119.190 E30.76178
G1 X98.640 Y118.937 E30.77238
G1 X98.388 Y119.190 E30.78298
G1 X98.135 Y118.937 E30.79359
G1 X98.388 Y118.685 E30.80419
G1 X98.135 Y118.432 E30.81479
G1 X97.631 Y118.937 E30.83600
G1 X97.883 Y119.190 E30.84660
G1 X97.631 Y119.442 E30.85720
G1 X97.126 Y118.937 E30.87840
G1 X97.378 Y118.685 E30.88901
G1 X97.126 Y118.432 E30.89961
G1 X96.873 Y118.685 E30.91021
G1 X96.730 Y118.541 E30.91624
G1 X96.465 Y118.083 F7800.000
G1 X96.621 Y117.927 E30.92277 F1500.000
G1 X96.873 Y118.180 E30.93337
G1 X97.126 Y117.927 E30.94398
G1 X96.873 Y117.675 E30.95458
G1 X97.126 Y117.422 E30.96518
G1 X97.631 Y117.927 E30.98638
G1 X97.378 Y118.180 E30.99699
G1 X97.631 Y118.432 E31.00759
G1 X98.135 Y117.927 E31.02879
G1 X98.388 Y117.675 E31.03940
G1 X98.135 Y117.422 E31.05000
G1 X97.883 Y117.675 E31.06060
G1 X97.378 Y117.170 E31.08180
G1 X97.631 Y116.917 E31.09241
G1 X97.883 Y117.170 E31.10301
G1 X98.135 Y116.917 E31.11361
G1 X97.883 Y116.665 E31.12421
G1 X98.135 Y116.412 E31.13482
G1 X98.640 Y116.917 E31.15602
G1 X98.388 Y117.170 E31.16662
G1 X98.640 Y117.422 E31.17722
G1 X98.893 Y117.170 E31.18783
G1 X99.398 Y117.675 E31.20903
G1 X99.145 Y117.927 E31.21963
G1 X98.893 Y117.675 E31.23023
G1 X98.388 Y118.180 E31.25144
G1 X98.640 Y118.432 E31.26204
G1 X98.893 Y118.180 E31.27264
G1 X99.145 Y118.432 E31.28325
G1 X98.893 Y118.685 E31.29385
G1 X99.145 Y118.937 E31.30445
G1 X99.650 Y118.432 E31.32565
G1 X99.398 Y118.180 E31.33626
G1 X99.650 Y117.927 E31.34686
G1 X99.903 Y118.180 E31.35746
G1 X100.408 Y117.675 E31.37866
G1 X100.155 Y117.422 E31.38927
G1 X99.903 Y117.675 E31.39987
G1 X99.398 Y117.170 E31.42107
G1 X99.650 Y116.917 E31.43168
G1 X99.903 Y117.170 E31.44228
G1 X100.155 Y116.917 E31.45288
G1 X99.903 Y116.665 E31.46348
G1 X100.155 Y116.412 E31.47408
G1 X100.660 Y116.917 E31.49529
G1 X100.408 Y117.170 E31.50589
G1 X100.660 Y117.422 E31.51649
G1 X101.165 Y116.917 E31.53770
G1 X100.913 Y116.665 E31.54830
G1 X101.165 Y116.412 E31.55890
G1 X101.418 Y116.665 E31.56950
G1 X101.923 Y116.160 E31.59071
G1 X101.670 Y115.907 E31.60131
G1 X101.418 Y116.160 E31.61191
G1 X101.165 Y115.907 E31.62251
G1 X101.418 Y115.655 E31.63312
G1 X101.165 Y115.402 E31.64372
G1 X100.660 Y115.907 E31.66492
G1 X100.913 Y116.160 E31.67553
G1 X100.660 Y116.412 E31.68613
G1 X99.903 Y115.655 E31.71793
G1 X100.155 Y115.402 E31.72854
G1 X100.408 Y115.655 E31.73914
G1 X100.913 Y115.150 E31.76034
G1 X100.660 Y114.897 E31.77094
G1 X100.408 Y115.150 E31.78155
G1 X100.155 Y114.897 E31.79215
G1 X100.408 Y114.645 E31.80275
G1 X100.155 Y114.392 E31.81335
G1 X99.650 Y114.897 E31.83456
G1 X99.903 Y115.150 E31.84516
G1 X99.650 Y115.402 E31.85576
G1 X99.398 Y115.150 E31.86636
G1 X98.893 Y115.655 E31.88757
G1 X99.145 Y115.907 E31.89817
G1 X99.398 Y115.655 E31.90877
G1 X99.903 Y116.160 E31.92998
G1 X99.650 Y116.412 E31.94058
G1 X99.398 Y116.160 E31.95118
G1 X99.145 Y116.412 E31.96178
G1 X99.398 Y116.665 E31.97239
G1 X99.145 Y116.917 E31.98299
G1 X98.640 Y116.412 E32.00419
G1 X98.893 Y116.160 E32.01479
G1 X98.640 Y115.907 E32.02540
G1 X98.388 Y116.160 E32.03600
G1 X98.135 Y115.907 E32.04660
G1 X98.388 Y115.655 E32.05720
G1 X98.135 Y115.402 E32.06780
G1 X97.883 Y115.655 E32.07841
G1 X97.378 Y115.150 E32.09961
G1 X97.631 Y114.897 E32.11021
G1 X97.883 Y115.150 E32.12082
G1 X98.135 Y114.897 E32.13142
G1 X97.883 Y114.645 E32.14202
G1 X98.135 Y114.392 E32.15262
G1 X98.640 Y114.897 E32.17383
G1 X98.388 Y115.150 E32.18443
G1 X98.640 Y115.402 E32.19503
G1 X99.145 Y114.897 E32.21623
G1 X98.893 Y114.645 E32.22684
G1 X99.145 Y114.392 E32.23744
G1 X99.398 Y114.645 E32.24804
G1 X99.903 Y114.140 E32.26925
G1 X99.650 Y113.887 E32.27985
G1 X99.398 Y114.140 E32.29045
G1 X99.145 Y113.887 E32.30105
G1 X99.398 Y113.635 E32.31165
G1 X99.145 Y113.382 E32.32226
G1 X98.640 Y113.887 E32.34346
G1 X98.893 Y114.140 E32.35406
G1 X98.640 Y114.392 E32.36467
G1 X98.135 Y113.887 E32.38587
G1 X97.883 Y113.635 E32.39647
G1 X98.135 Y113.382 E32.40707
G1 X98.388 Y113.635 E32.41768
G1 X98.893 Y113.130 E32.43888
G1 X98.640 Y112.877 E32.44948
G1 X98.388 Y113.130 E32.46008
G1 X98.135 Y112.877 E32.47069
G1 X98.388 Y112.625 E32.48129
G1 X98.135 Y112.372 E32.49189
G1 X97.631 Y112.877 E32.51310
G1 X97.883 Y113.130 E32.52370
