; generated by Slic3r 1.2.9 on 2017-05-16 at 20:14:52

; external perimeters extrusion width = 0.35mm
; perimeters extrusion width = 0.52mm
; infill extrusion width = 0.52mm
; solid infill extrusion width = 0.52mm
; top infill extrusion width = 0.35mm

M107
M190 S100 ; set bed temperature
M104 S210 ; set temperature
G28 ; home all axes
G1 Z5 F5000 ; lift nozzle
M109 S210 ; wait for temperature to be reached
G21 ; set units to millimeters
G90 ; use absolute coordinates
M82 ; use absolute distances for extrusion
G92 E0
G1 Z0.200 F7800.000
G1 E-1.00000 F3600.00000
G92 E0
G1 X69.705 Y68.813 F7800.000
G1 E1.00000 F3600.00000
G1 X70.495 Y68.084 E1.03192 F1500.000
G1 X71.346 Y67.427 E1.06383
G1 X72.251 Y66.847 E1.09575
G1 X72.689 Y66.604 E1.11063
G1 X73.267 Y66.318 E1.12977
G1 X73.794 Y66.089 E1.14682
G1 X74.393 Y65.863 E1.16584
G1 X75.428 Y65.553 E1.19791
G1 X75.915 Y65.441 E1.21277
G1 X76.549 Y65.325 E1.23191
G1 X77.618 Y65.206 E1.26382
G1 X78.442 Y65.179 E1.28831
G1 X122.222 Y65.179 E2.58819
G1 X123.295 Y65.229 E2.62009 F1500.000
G1 X124.291 Y65.360 E2.64992
G1 X125.336 Y65.588 E2.68167
G1 X126.231 Y65.862 E2.70945
G1 X127.168 Y66.231 E2.73935
G1 X128.130 Y66.708 E2.77125
G1 X129.045 Y67.265 E2.80305
G1 X129.799 Y67.813 E2.83073
G1 X130.615 Y68.513 E2.86264
G1 X131.366 Y69.282 E2.89456
G1 X132.047 Y70.113 E2.92648
G1 X132.652 Y70.999 E2.95832
G1 X133.148 Y71.875 E2.98821
G1 X133.551 Y72.741 E3.01657
G1 X133.879 Y74.343 E3.06512
G1 X133.879 Y125.657 E4.58870
G1 X133.551 Y127.259 E4.63725
G1 X133.180 Y128.062 E4.66351
G1 X132.766 Y128.815 E4.68904
G1 X132.178 Y129.709 E4.72081
G1 X131.602 Y130.447 E4.74858
G1 X130.923 Y131.187 E4.77841
G1 X130.133 Y131.916 E4.81033
G1 X129.400 Y132.488 E4.83794
G1 X128.561 Y133.044 E4.86780
G1 X127.748 Y133.494 E4.89541
G1 X126.833 Y133.911 E4.92525
G1 X125.960 Y134.229 E4.95286
G1 X124.992 Y134.497 E4.98267
G1 X124.079 Y134.675 E5.01031
G1 X123.079 Y134.789 E5.04016
G1 X122.186 Y134.821 E5.06671
G1 X78.442 Y134.821 E6.36552
G1 X77.404 Y134.777 E6.39638
G1 X76.763 Y134.706 E6.41553
G1 X76.126 Y134.602 E6.43468
G1 X75.496 Y134.464 E6.45384
G1 X75.012 Y134.334 E6.46872
G1 X74.397 Y134.138 E6.48787
G1 X73.859 Y133.937 E6.50494
G1 X73.267 Y133.682 E6.52406
G1 X72.689 Y133.395 E6.54324
G1 X72.127 Y133.080 E6.56237
G1 X71.585 Y132.737 E6.58140
G1 X71.171 Y132.447 E6.59641
G1 X70.660 Y132.053 E6.61556
G1 X70.224 Y131.680 E6.63260
G1 X69.755 Y131.237 E6.65176
G1 X69.309 Y130.771 E6.67091
G1 X68.889 Y130.282 E6.69005
G1 X68.329 Y129.538 E6.71770
G1 X67.754 Y128.630 E6.74961
G1 X67.290 Y127.739 E6.77942
G1 X66.927 Y126.883 E6.80706
G1 X66.608 Y125.930 E6.83688
G1 X66.383 Y125.027 E6.86452
G1 X66.217 Y124.036 E6.89433
G1 X66.136 Y123.109 E6.92197
G1 X66.121 Y122.500 E6.94006
G1 X66.122 Y77.320 E8.28151
G1 X66.140 Y76.819 E8.29639
G1 X66.192 Y76.177 E8.31554
G1 X66.267 Y75.607 E8.33258
G1 X66.383 Y74.973 E8.35172
G1 X66.531 Y74.346 E8.37087
G1 X66.670 Y73.864 E8.38576
G1 X66.876 Y73.253 E8.40491
G1 X67.086 Y72.719 E8.42196
G1 X67.290 Y72.261 E8.43684
G1 X67.580 Y71.684 E8.45600
G1 X67.863 Y71.184 E8.47304
G1 X68.208 Y70.640 E8.49219
G1 X68.495 Y70.229 E8.50707
G1 X68.889 Y69.718 E8.52622
G1 X69.262 Y69.282 E8.54326
G1 X69.668 Y68.850 E8.56086
G1 X69.959 Y69.063 F7800.000
G1 X70.727 Y68.356 E8.59186 F1500.000
G1 X71.553 Y67.718 E8.62284
G1 X72.432 Y67.155 E8.65383
G1 X72.854 Y66.921 E8.66815
G1 X73.415 Y66.643 E8.68675
G1 X73.930 Y66.419 E8.70342
G1 X74.512 Y66.200 E8.72189
G1 X75.517 Y65.899 E8.75303
G1 X75.986 Y65.791 E8.76733
G1 X76.602 Y65.678 E8.78592
G1 X77.639 Y65.563 E8.81691
G1 X78.442 Y65.536 E8.84075
G1 X122.219 Y65.536 E10.14054
G1 X123.261 Y65.584 E10.17152 F1500.000
G1 X124.232 Y65.712 E10.20060
G1 X125.247 Y65.934 E10.23143
G1 X126.112 Y66.198 E10.25829
G1 X127.025 Y66.558 E10.28744
G1 X127.832 Y66.952 E10.31408
G1 X128.675 Y67.449 E10.34316
G1 X129.527 Y68.053 E10.37415
G1 X130.322 Y68.728 E10.40513
G1 X131.056 Y69.471 E10.43613
G1 X131.722 Y70.275 E10.46712
G1 X132.316 Y71.134 E10.49815
G1 X132.831 Y72.040 E10.52909
G1 X133.222 Y72.882 E10.55665
G1 X133.522 Y74.343 E10.60094
G1 X133.522 Y125.657 E12.12452
G1 X133.222 Y127.118 E12.16881
G1 X132.861 Y127.903 E12.19445
G1 X132.425 Y128.689 E12.22116
G1 X131.884 Y129.506 E12.25024
G1 X131.237 Y130.324 E12.28122
G1 X130.623 Y130.983 E12.30794
G1 X129.852 Y131.685 E12.33890
G1 X129.075 Y132.282 E12.36800
G1 X128.321 Y132.772 E12.39470
G1 X127.459 Y133.239 E12.42381
G1 X126.638 Y133.605 E12.45050
G1 X125.714 Y133.932 E12.47959
G1 X124.846 Y134.165 E12.50627
G1 X123.883 Y134.343 E12.53535
G1 X122.988 Y134.437 E12.56206
G1 X122.186 Y134.464 E12.58591
G1 X78.442 Y134.464 E13.88472
G1 X77.432 Y134.421 E13.91474
G1 X76.809 Y134.352 E13.93334
G1 X76.191 Y134.250 E13.95194
G1 X75.579 Y134.116 E13.97054
G1 X75.113 Y133.992 E13.98486
G1 X74.516 Y133.802 E14.00346
G1 X73.990 Y133.605 E14.02016
G1 X73.415 Y133.357 E14.03873
G1 X72.853 Y133.079 E14.05735
G1 X72.308 Y132.772 E14.07593
G1 X71.782 Y132.439 E14.09440
G1 X71.383 Y132.160 E14.10885
G1 X70.888 Y131.777 E14.12745
G1 X70.461 Y131.413 E14.14412
G1 X70.005 Y130.983 E14.16272
G1 X69.573 Y130.530 E14.18132
G1 X69.165 Y130.054 E14.19991
G1 X68.623 Y129.336 E14.22663
G1 X68.097 Y128.510 E14.25570
G1 X67.613 Y127.586 E14.28668
G1 X67.261 Y126.757 E14.31340
G1 X66.950 Y125.829 E14.34248
G1 X66.733 Y124.956 E14.36920
G1 X66.571 Y123.990 E14.39827
G1 X66.493 Y123.094 E14.42498
G1 X66.478 Y122.500 E14.44261
G1 X66.479 Y77.323 E15.78397
G1 X66.496 Y76.841 E15.79829
G1 X66.547 Y76.217 E15.81688
G1 X66.620 Y75.660 E15.83356
G1 X66.733 Y75.044 E15.85214
G1 X66.877 Y74.435 E15.87074
G1 X67.010 Y73.971 E15.88507
G1 X67.211 Y73.378 E15.90366
G1 X67.416 Y72.855 E15.92034
G1 X67.613 Y72.414 E15.93466
G1 X67.894 Y71.854 E15.95327
G1 X68.170 Y71.366 E15.96994
G1 X68.505 Y70.837 E15.98854
G1 X68.782 Y70.441 E16.00286
G1 X69.165 Y69.945 E16.02146
G1 X69.529 Y69.519 E16.03813
G1 X69.923 Y69.100 E16.05517
G1 X70.214 Y69.313 F7800.000
G1 X70.959 Y68.627 E16.08524 F1500.000
G1 X71.761 Y68.009 E16.11530
G1 X72.613 Y67.463 E16.14537
G1 X73.563 Y66.968 E16.17717
G1 X74.067 Y66.749 E16.19347
G1 X74.631 Y66.536 E16.21138
G1 X75.606 Y66.245 E16.24160
G1 X76.655 Y66.031 E16.27337
G1 X77.661 Y65.919 E16.30343
G1 X78.442 Y65.893 E16.32663
G1 X122.216 Y65.893 E17.62632
G1 X123.227 Y65.940 E17.65638 F1500.000
G1 X124.173 Y66.064 E17.68472
G1 X125.157 Y66.280 E17.71463
G1 X125.992 Y66.535 E17.74056
G1 X126.882 Y66.886 E17.76896
G1 X127.661 Y67.266 E17.79469
G1 X128.483 Y67.750 E17.82302
G1 X129.309 Y68.336 E17.85309
G1 X130.081 Y68.991 E17.88314
G1 X130.789 Y69.708 E17.91306
G1 X131.350 Y70.376 E17.93895
G1 X131.936 Y71.203 E17.96906
G1 X132.448 Y72.077 E17.99913
G1 X132.894 Y73.022 E18.03016
G1 X133.165 Y74.343 E18.07020
G1 X133.165 Y125.657 E19.59378
G1 X132.894 Y126.978 E19.63381
G1 X132.515 Y127.795 E19.66057
G1 X132.044 Y128.626 E19.68892
G1 X131.559 Y129.346 E19.71470
G1 X130.927 Y130.137 E19.74475
G1 X130.270 Y130.829 E19.77308
G1 X129.625 Y131.410 E19.79884
G1 X128.867 Y131.991 E19.82721
G1 X128.139 Y132.464 E19.85298
G1 X127.300 Y132.920 E19.88135
G1 X126.507 Y133.273 E19.90712
G1 X125.607 Y133.591 E19.93546
G1 X124.769 Y133.816 E19.96122
G1 X123.831 Y133.990 E19.98956
G1 X122.967 Y134.081 E20.01535
G1 X122.186 Y134.107 E20.03854
G1 X78.442 Y134.107 E21.33736
G1 X77.460 Y134.065 E21.36655
G1 X76.856 Y133.998 E21.38459
G1 X76.256 Y133.899 E21.40263
G1 X75.215 Y133.649 E21.43444
G1 X74.636 Y133.465 E21.45248
G1 X74.121 Y133.273 E21.46881
G1 X73.563 Y133.032 E21.48683
G1 X73.018 Y132.762 E21.50489
G1 X72.489 Y132.464 E21.52291
G1 X71.979 Y132.141 E21.54083
G1 X71.115 Y131.502 E21.57276
G1 X70.697 Y131.145 E21.58907
G1 X70.255 Y130.728 E21.60711
G1 X69.836 Y130.288 E21.62515
G1 X69.440 Y129.827 E21.64319
G1 X68.917 Y129.133 E21.66898
G1 X68.405 Y128.329 E21.69731
G1 X67.935 Y127.432 E21.72737
G1 X67.596 Y126.632 E21.75316
G1 X67.293 Y125.727 E21.78150
G1 X67.083 Y124.884 E21.80729
G1 X66.925 Y123.943 E21.83563
G1 X66.849 Y123.078 E21.86142
G1 X66.835 Y122.500 E21.87858
G1 X66.836 Y77.326 E23.21984
G1 X66.902 Y76.258 E23.25164
G1 X66.973 Y75.713 E23.26794
G1 X67.083 Y75.116 E23.28598
G1 X67.351 Y74.078 E23.31779
G1 X67.545 Y73.503 E23.33583
G1 X67.746 Y72.992 E23.35213
G1 X68.208 Y72.025 E23.38394
G1 X68.478 Y71.547 E23.40024
G1 X68.803 Y71.034 E23.41828
G1 X69.440 Y70.173 E23.45009
G1 X69.797 Y69.755 E23.46639
G1 X70.177 Y69.351 E23.48287
G1 E22.48287 F3600.00000
G92 E0
G1 X97.606 Y106.809 F7800.000
G1 E1.00000 F3600.00000
G1 X97.448 Y106.752 E1.00498 F900.000
G1 X96.758 Y106.415 E1.02778
G1 X96.107 Y106.008 E1.05056
G1 X95.602 Y105.621 E1.06945
G1 X95.035 Y105.092 E1.09248
G1 X94.616 Y104.619 E1.11124
G1 X94.160 Y103.991 E1.13427
G1 X93.840 Y103.447 E1.15304
G1 X93.505 Y102.729 E1.17655
G1 X93.637 Y102.624 E1.18156
G1 X93.904 Y102.832 E1.19160
G1 X94.316 Y103.071 E1.20576
G1 X94.758 Y103.249 E1.21991
G1 X95.221 Y103.364 E1.23406
G1 X95.473 Y103.391 E1.24158
G1 X96.058 Y104.110 E1.26911
G1 X96.672 Y104.662 E1.29363
G1 X96.923 Y104.832 E1.30262
G1 X96.928 Y104.976 E1.30692
G1 X97.101 Y105.669 E1.32813
G1 X97.414 Y106.312 E1.34935
G1 X97.701 Y106.678 E1.36315
G1 X97.637 Y106.766 E1.36639
G1 X99.541 Y107.459 F7800.000
G1 X99.492 Y107.647 E1.37216 F900.000
G1 X98.712 Y107.524 E1.39559
G1 X98.067 Y107.357 E1.41537
G1 X97.308 Y107.081 E1.43934
G1 X96.585 Y106.728 E1.46325
G1 X95.903 Y106.302 E1.48710
G1 X95.371 Y105.894 E1.50701
G1 X94.779 Y105.342 E1.53106
G1 X94.338 Y104.843 E1.55084
G1 X93.861 Y104.187 E1.57489
G1 X93.523 Y103.613 E1.59467
G1 X93.181 Y102.879 E1.61872
G1 X92.959 Y102.251 E1.63850
G1 X92.763 Y101.468 E1.66248
G1 X92.679 Y100.868 E1.68047
G1 X92.866 Y100.821 E1.68620
G1 X93.020 Y101.244 E1.69957
G1 X93.220 Y101.621 E1.71224
G1 X93.471 Y101.966 E1.72491
G1 X93.768 Y102.273 E1.73757
G1 X94.104 Y102.536 E1.75024
G1 X94.473 Y102.749 E1.76291
G1 X94.869 Y102.909 E1.77558
G1 X95.283 Y103.012 E1.78825
G1 X95.679 Y103.054 E1.80009
G1 X95.820 Y103.271 E1.80777
G1 X96.316 Y103.861 E1.83066
G1 X96.892 Y104.380 E1.85369
G1 X97.273 Y104.637 E1.86733
G1 X97.284 Y104.926 E1.87593
G1 X97.438 Y105.547 E1.89491
G1 X97.719 Y106.122 E1.91391
G1 X98.113 Y106.626 E1.93290
G1 X98.595 Y107.031 E1.95161
G1 X98.981 Y107.253 E1.96483
G1 X99.491 Y107.441 E1.98097
G1 E0.98097 F3600.00000
G92 E0
G1 X93.515 Y97.266 F7800.000
G1 E1.00000 F3600.00000
G1 X93.899 Y96.444 E1.02694 F900.000
G1 X94.306 Y95.793 E1.04973
G1 X94.781 Y95.185 E1.07265
G1 X95.219 Y94.724 E1.09153
G1 X95.695 Y94.302 E1.11041
G1 X96.323 Y93.846 E1.13344
G1 X96.867 Y93.526 E1.15220
G1 X97.578 Y93.194 E1.17551
G1 X97.684 Y93.318 E1.18035
G1 X97.304 Y93.881 E1.20053
G1 X97.097 Y94.346 E1.21564
G1 X96.928 Y95.024 E1.23637
G1 X96.923 Y95.168 E1.24067
G1 X96.672 Y95.338 E1.24966
G1 X96.058 Y95.890 E1.27418
G1 X95.473 Y96.609 E1.30171
G1 X95.221 Y96.636 E1.30923
G1 X94.758 Y96.751 E1.32338
G1 X94.301 Y96.935 E1.33801
G1 X93.723 Y97.297 E1.35828
G1 X93.653 Y97.360 E1.36105
G1 X93.558 Y97.295 E1.36446
G1 X92.863 Y99.253 F7800.000
G1 X92.661 Y99.213 E1.37056 F900.000
G1 X92.790 Y98.398 E1.39504
G1 X92.957 Y97.753 E1.41482
G1 X93.233 Y96.994 E1.43880
G1 X93.586 Y96.271 E1.46270
G1 X94.013 Y95.588 E1.48661
G1 X94.510 Y94.952 E1.51059
G1 X94.970 Y94.467 E1.53044
G1 X95.471 Y94.024 E1.55029
G1 X96.127 Y93.547 E1.57434
G1 X96.701 Y93.209 E1.59412
G1 X97.435 Y92.867 E1.61817
G1 X98.063 Y92.645 E1.63795
G1 X98.846 Y92.449 E1.66193
G1 X99.427 Y92.368 E1.67933
G1 X99.465 Y92.567 E1.68537
G1 X98.973 Y92.751 E1.70097
G1 X98.604 Y92.964 E1.71364
G1 X98.268 Y93.227 E1.72631
G1 X97.964 Y93.541 E1.73926
G1 X97.618 Y94.055 E1.75768
G1 X97.436 Y94.463 E1.77093
G1 X97.284 Y95.074 E1.78962
G1 X97.273 Y95.363 E1.79821
G1 X96.892 Y95.620 E1.81186
G1 X96.316 Y96.139 E1.83489
G1 X95.820 Y96.729 E1.85778
G1 X95.679 Y96.946 E1.86546
G1 X95.283 Y96.988 E1.87730
G1 X94.869 Y97.091 E1.88997
G1 X94.464 Y97.255 E1.90293
G1 X93.938 Y97.583 E1.92134
G1 X93.614 Y97.875 E1.93430
G1 X93.340 Y98.202 E1.94697
G1 X93.113 Y98.566 E1.95969
G1 X92.928 Y98.988 E1.97337
G1 X92.875 Y99.202 E1.97993
G1 E0.97993 F3600.00000
G92 E0
G1 X102.938 Y93.332 F7800.000
G1 E1.00000 F3600.00000
G1 X103.038 Y93.192 E1.00511 F900.000
G1 X103.412 Y93.351 E1.01717
G1 X103.981 Y93.647 E1.03622
G1 X104.416 Y93.919 E1.05145
G1 X104.830 Y94.220 E1.06664
G1 X105.222 Y94.549 E1.08184
G1 X105.588 Y94.902 E1.09693
G1 X106.017 Y95.387 E1.11616
G1 X106.323 Y95.793 E1.13125
G1 X106.685 Y96.372 E1.15152
G1 X106.120 Y96.606 E1.16966
G1 X105.934 Y96.586 E1.17522
G1 X105.457 Y96.602 E1.18939
G1 X105.185 Y96.650 E1.19760
G1 X105.090 Y96.510 E1.20262
G1 X104.570 Y95.890 E1.22665
G1 X103.956 Y95.338 E1.25117
G1 X103.709 Y95.171 E1.26001
G1 X103.653 Y94.774 E1.27193
G1 X103.438 Y94.109 E1.29267
G1 X103.080 Y93.490 E1.31390
G1 X102.973 Y93.371 E1.31865
G1 X101.093 Y92.545 F7800.000
G1 X101.135 Y92.355 E1.32443 F900.000
G1 X101.517 Y92.402 E1.33585
G1 X102.044 Y92.505 E1.35179
G1 X102.563 Y92.644 E1.36773
G1 X103.071 Y92.818 E1.38368
G1 X103.564 Y93.028 E1.39959
G1 X104.158 Y93.337 E1.41948
G1 X104.616 Y93.623 E1.43549
G1 X105.050 Y93.938 E1.45143
G1 X105.461 Y94.283 E1.46737
G1 X105.846 Y94.655 E1.48324
G1 X106.294 Y95.161 E1.50331
G1 X106.615 Y95.588 E1.51918
G1 X106.908 Y96.038 E1.53512
G1 X107.191 Y96.549 E1.55245
G1 X106.173 Y96.970 E1.58518
G1 X105.921 Y96.943 E1.59268
G1 X105.494 Y96.958 E1.60537
G1 X105.018 Y97.042 E1.61972
G1 X104.805 Y96.725 E1.63107
G1 X104.312 Y96.139 E1.65380
G1 X103.736 Y95.620 E1.67683
G1 X103.365 Y95.370 E1.69011
G1 X103.304 Y94.854 E1.70552
G1 X103.110 Y94.255 E1.72423
G1 X102.790 Y93.701 E1.74322
G1 X102.368 Y93.233 E1.76192
G1 X102.025 Y92.965 E1.77486
G1 X101.686 Y92.768 E1.78648
G1 X101.453 Y92.662 E1.79411
G1 X101.143 Y92.561 E1.80376
G1 E0.80376 F3600.00000
G92 E0
G1 X106.685 Y103.628 F7800.000
G1 E1.00000 F3600.00000
G1 X106.249 Y104.311 E1.02405 F900.000
G1 X105.933 Y104.715 E1.03928
G1 X105.593 Y105.093 E1.05436
G1 X105.124 Y105.538 E1.07355
G1 X104.728 Y105.858 E1.08868
G1 X104.309 Y106.152 E1.10388
G1 X103.870 Y106.416 E1.11908
G1 X103.418 Y106.646 E1.13416
G1 X103.030 Y106.807 E1.14663
G1 X102.930 Y106.675 E1.15154
G1 X103.214 Y106.312 E1.16524
G1 X103.527 Y105.669 E1.18646
G1 X103.700 Y104.976 E1.20767
G1 X103.705 Y104.832 E1.21197
G1 X103.956 Y104.662 E1.22096
G1 X104.570 Y104.110 E1.24548
G1 X105.090 Y103.490 E1.26951
G1 X105.185 Y103.350 E1.27453
G1 X105.457 Y103.398 E1.28274
G1 X105.934 Y103.414 E1.29692
G1 X106.120 Y103.394 E1.30247
G1 X106.636 Y103.608 E1.31905
G1 X107.191 Y103.451 F7800.000
G1 X106.909 Y103.960 E1.33631 F900.000
G1 X106.539 Y104.520 E1.35624
G1 X106.207 Y104.945 E1.37225
G1 X105.849 Y105.342 E1.38812
G1 X105.360 Y105.806 E1.40814
G1 X104.943 Y106.144 E1.42406
G1 X104.504 Y106.452 E1.44000
G1 X104.043 Y106.728 E1.45594
G1 X103.567 Y106.971 E1.47181
G1 X102.943 Y107.229 E1.49188
G1 X102.434 Y107.395 E1.50775
G1 X101.913 Y107.524 E1.52370
G1 X101.387 Y107.617 E1.53957
G1 X101.152 Y107.640 E1.54659
G1 X101.121 Y107.440 E1.55260
G1 X101.250 Y107.412 E1.55652
G1 X101.655 Y107.249 E1.56948
G1 X102.033 Y107.031 E1.58244
G1 X102.515 Y106.626 E1.60115
G1 X102.909 Y106.122 E1.62014
G1 X103.190 Y105.547 E1.63914
G1 X103.344 Y104.926 E1.65812
G1 X103.355 Y104.637 E1.66671
G1 X103.736 Y104.380 E1.68036
G1 X104.312 Y103.861 E1.70339
G1 X104.805 Y103.275 E1.72613
G1 X105.018 Y102.958 E1.73748
G1 X105.494 Y103.042 E1.75183
G1 X105.921 Y103.057 E1.76451
G1 X106.173 Y103.030 E1.77202
G1 X107.142 Y103.431 E1.80318
G1 X107.667 Y103.262 F7800.000
G1 X107.486 Y103.655 E1.81602 F900.000
G1 X107.214 Y104.145 E1.83266
G1 X106.829 Y104.728 E1.85342
G1 X106.481 Y105.174 E1.87022
G1 X106.105 Y105.591 E1.88688
G1 X105.596 Y106.075 E1.90773
G1 X105.159 Y106.429 E1.92444
G1 X104.698 Y106.751 E1.94112
G1 X104.217 Y107.041 E1.95780
G1 X103.717 Y107.295 E1.97446
G1 X103.066 Y107.565 E1.99536
G1 X102.533 Y107.738 E2.01202
G1 X101.988 Y107.874 E2.02870
G1 X101.435 Y107.971 E2.04536
G1 X100.734 Y108.039 E2.06626
G1 X100.174 Y108.049 E2.08289
G1 X99.473 Y108.006 E2.10374
G1 X98.640 Y107.874 E2.12881
